media_metadata/bennett_5/lut.cube
TITLE "Generated by Resolve"
LUT_3D_SIZE 33
0 0 0
0 0 0
0.0303655 0 0
0.0671702 0 0
0.10547 0 0
0.142107 0 0
0.176516 0 0.0084535
0.220706 0 0.00657664
0.264408 0 0.00350958
0.308034 0 0
0.352117 0 0
0.396414 0 0
0.44065 0 0
0.484245 0 0
0.527138 0 0
0.569467 0 0
0.610376 0 0
0.650645 0 0
0.690806 0 0
0.731792 0 0
0.775051 0 0
0.818158 0 0
0.858778 0 0
0.894041 0 0
0.926528 0 0
0.960189 0 0.0218509
0.995712 0 0.0412757
1 0 0.0448615
1 0 0.0484627
1 0 0.052079
1 0 0.0554818
1 0 0.0590219
1 0 0.0626383
0 0 0
0 0 0
0.0298466 0 0
0.0525216 0 0.00123598
0.0946517 0 0.00137331
0.137911 0 0.000442512
0.179553 0 0
0.221256 0 0
0.262654 0 0
0.304143 0 0
0.345876 0 0
0.38761 0 0
0.429419 0 0
0.470985 0 0
0.511955 0 0
0.551858 0 0
0.591669 0 0
0.631479 0 0
0.671199 0 0
0.711574 0 0
0.754376 0 0
0.798962 0 0
0.843259 0 0
0.884474 0 0
0.921538 0 0
0.958465 0 0.00485237
0.996201 0.0167544 0.0311437
1 0.0252995 0.0413977
1 0.0268406 0.0448005
1 0.0283818 0.0481727
1 0.0299382 0.0515602
1 0.0314641 0.0549172
1 0.0327459 0.0580453
0 0.0204471 0
0 0.0309453 0
0.0248722 0.0307012 0
0.0635538 0.0295872 0
0.103685 0.0273136 0
0.143679 0.0236515 0
0.18323 0.0189364 0
0.222461 0.0132601 0
0.261555 0.00668345 0
0.300587 0 0
0.339757 0 0
0.37908 0 0
0.418463 0 0
0.457328 0 0
0.496147 0 0
0.535042 0 0
0.574243 0 0
0.613535 0 0
0.652964 0 0
0.692943 0 0
0.734829 0 0
0.779889 0 0
0.826596 0 0
0.872648 0 0
0.915206 0 0
0.955978 0.0177157 0
0.997162 0.0467384 0.0213474
1 0.0673533 0.0443122
1 0.0686046 0.0474098
1 0.0700999 0.0507973
1 0.0716106 0.0541543
1 0.073106 0.057496
1 0.0745861 0.060853
0 0.0644694 0
0 0.0644236 0
0.0349126 0.0640574 0
0.0734264 0.0626688 0
0.111528 0.0601663 0
0.149081 0.0563668 0
0.186282 0.0517281 0
0.223209 0.0460975 0
0.259937 0.0395819 0
0.29633 0.032166 0
0.332937 0.0243076 0
0.369329 0.0166323 0
0.405753 0.00901808 0
0.442893 0.00138857 0
0.48043 0 0
0.518441 0 0
0.556909 0 0
0.59588 0 0
0.635279 0 0
0.674876 0 0
0.715831 0 0
0.760479 0 0
0.808286 0 0
0.857755 0 0
0.905638 0.00833143 0
0.950866 0.041474 0
0.995926 0.0746471 0.00828565
1 0.103883 0.0411231
1 0.110872 0.050309
1 0.112078 0.0533913
1 0.113542 0.0567025
1 0.115007 0.0600443
1 0.116457 0.0633555
0 0.098558 0
0.00399786 0.0990005 0
0.0427558 0.0988785 0
0.0809796 0.0979629 0
0.116503 0.096025 0
0.151934 0.0928664 0
0.186999 0.0885176 0
0.221729 0.0830091 0
0.256062 0.0764172 0
0.289723 0.0691081 0
0.323705 0.0610208 0
0.358038 0.0522316 0
0.392905 0.0430304 0
0.428641 0.0341344 0
0.46511 0.0256199 0
0.502342 0.0174411 0
0.540246 0.00988785 0
0.57882 0.00288396 0
0.61796 0 0
0.657526 0 0
0.697734 0 0
0.741451 0 0
0.789563 0 0
0.840925 0.00445563 0
0.893202 0.0295262 0
0.943313 0.0637675 0
0.992462 0.10071 0
1 0.13434 0.0307927
1 0.153017 0.0528725
1 0.154467 0.0561685
1 0.155688 0.0592508
1 0.157092 0.062501
1 0.158511 0.0657969
0 0.133059 0
0.00723278 0.134005 0
0.0455329 0.134142 0
0.0827955 0.133501 0
0.116594 0.131838 0
0.150225 0.129213 0
0.18349 0.12546 0
0.216464 0.120394 0
0.248936 0.113603 0
0.281453 0.105623 0
0.314015 0.0964828 0
0.346944 0.0865949 0
0.380453 0.0762951 0
0.415 0.0662852 0
0.450523 0.0567025 0
0.487083 0.0476692 0
0.524315 0.0391852 0
0.562478 0.0315709 0
0.601282 0.0247654 0
0.640635 0.0187686 0
0.680552 0.0135805 0
0.723201 0.0113985 0
0.771008 0.0151675 0
0.823255 0.0275425 0
0.878462 0.0509651 0
0.933501 0.0856794 0
0.98674 0.125399 0
1 0.163256 0.0179446
1 0.1953 0.0553445
1 0.196719 0.0586404
1 0.198138 0.0619059
1 0.199298 0.0649119
1 0.200717 0.0681621
0 0.16701 0
0 0.168215 0
0.0373541 0.168902 0
0.0736553 0.168811 0
0.107515 0.167742 0
0.141314 0.165377 0
0.174731 0.161501 0
0.207645 0.155993 0
0.239734 0.148653 0
0.271595 0.140032 0
0.303395 0.13019 0
0.335409 0.119524 0
0.368048 0.108385 0
0.401648 0.0975814 0
0.436393 0.0871595 0
0.472297 0.0773327 0
0.509041 0.0682994 0
0.54667 0.0602274 0
0.585122 0.0530861 0
0.624247 0.0467994 0
0.663966 0.0413367 0
0.705852 0.0382391 0
0.752895 0.04065 0
0.805386 0.0514839 0
0.862531 0.0734417 0
0.921416 0.1075 0
0.979156 0.14934 0
1 0.191073 0.00306706
1 0.227756 0.0464942
1 0.239094 0.0610056
1 0.240497 0.0642557
1 0.241825 0.0673991
1 0.243046 0.0704814
0 0.199008 0
0 0.200275 0
0.0187839 0.201205 0
0.0566567 0.201251 0
0.0924392 0.200244 0
0.127672 0.197879 0
0.162036 0.193942 0
0.195392 0.188205 0
0.227878 0.180758 0
0.259815 0.171832 0
0.291402 0.161654 0
0.323095 0.150591 0
0.355154 0.139071 0
0.388418 0.127611 0
0.422599 0.116701 0
0.457847 0.106538 0
0.494118 0.097261 0
0.531289 0.0888685 0
0.569314 0.0813611 0
0.608194 0.0748455 0
0.647776 0.0691691 0
0.688991 0.0653239 0
0.735317 0.0667887 0
0.787747 0.0763104 0
0.845975 0.096849 0
0.907851 0.130022 0
0.970001 0.173281 0
1 0.218418 0
1 0.259037 0.0357061
1 0.281575 0.0633249
1 0.282963 0.0665293
1 0.284352 0.0697642
1 0.285481 0.0727092
0 0.226917 0
0 0.228138 0
0 0.229099 0
0.0349737 0.229282 0
0.0729381 0.228443 0
0.109972 0.22623 0
0.145739 0.222446 0
0.180133 0.216876 0
0.213413 0.209537 0
0.245914 0.200732 0
0.277821 0.1906 0
0.309728 0.179492 0
0.341909 0.168002 0
0.374701 0.156527 0
0.408484 0.145556 0
0.44329 0.135286 0
0.479164 0.125841 0
0.51603 0.117311 0
0.553704 0.10956 0
0.592371 0.102876 0
0.631815 0.0970626 0
0.672602 0.0927291 0
0.718364 0.0935531 0
0.770565 0.102037 0
0.829389 0.121431 0
0.893538 0.15375 0
0.959472 0.197696 0
1 0.24567 0
1 0.289952 0.0238804
1 0.324147 0.0655528
1 0.325521 0.0687419
1 0.326894 0.071931
1 0.328206 0.0750134
0 0.251728 0
0 0.252644 0
0 0.253407 0
0.0108797 0.253605 0
0.0507515 0.252857 0
0.0894331 0.250843 0
0.126589 0.247364 0
0.162493 0.242161 0
0.196796 0.235142 0
0.230121 0.226764 0
0.262684 0.217105 0
0.294957 0.206592 0
0.327337 0.19559 0
0.360098 0.18439 0
0.393774 0.173648 0
0.428397 0.16347 0
0.464042 0.15404 0
0.500679 0.145464 0
0.538216 0.137713 0
0.576654 0.130861 0
0.615976 0.124956 0
0.656519 0.120378 0
0.701885 0.12076 0
0.753933 0.128664 0
0.813275 0.147326 0
0.879072 0.178927 0
0.948348 0.223316 0
1 0.273487 0
1 0.321172 0.0118715
1 0.362188 0.062211
1 0.36817 0.0708324
1 0.369528 0.0739605
1 0.370871 0.0770886
0 0.274678 0
0 0.275059 0
0 0.275273 0
0 0.275242 0
0.0278325 0.274449 0
0.0675822 0.272587 0
0.105852 0.269398 0
0.142626 0.264714 0
0.177874 0.258381 0
0.212039 0.250706 0
0.24538 0.241825 0
0.27837 0.23212 0
0.311284 0.221805 0
0.344457 0.211261 0
0.378256 0.2009 0
0.41294 0.191028 0
0.448569 0.181796 0
0.485115 0.173342 0
0.522622 0.165698 0
0.560906 0.158801 0
0.600168 0.15288 0
0.640635 0.148241 0
0.685878 0.148486 0
0.738125 0.156329 0
0.797848 0.174563 0
0.865064 0.205844 0
0.93727 0.250599 0
1 0.302434 0
1 0.353079 0.000198367
1 0.397055 0.0547189
1 0.410864 0.0727855
1 0.412192 0.0758373
1 0.41352 0.0789044
0 0.296956 0
0 0.296635 0
0 0.296284 0
0 0.295766 0
0.00344854 0.294697 0
0.0437171 0.292851 0
0.0827192 0.289921 0
0.120378 0.28571 0
0.156725 0.280156 0
0.191897 0.273243 0
0.226276 0.265278 0
0.260136 0.256397 0
0.293828 0.246937 0
0.327688 0.237201 0
0.361929 0.227451 0
0.396841 0.218006 0
0.432609 0.20914 0
0.469276 0.200931 0
0.506813 0.193454 0
0.545129 0.186694 0
0.584375 0.180819 0
0.624933 0.176303 0
0.670451 0.176791 0
0.723049 0.184863 0
0.783642 0.203403 0
0.852323 0.234958 0
0.926863 0.279942 0
1 0.333181 0
1 0.386114 0
1 0.432776 0.047776
1 0.45362 0.0744945
1 0.454917 0.0774853
1 0.456214 0.0804761
0 0.31957 0
0 0.318471 0
0 0.317464 0
0 0.316258 0
0 0.314839 0
0.0187686 0.31281 0
0.05832 0.309972 0
0.0967575 0.306111 0
0.134066 0.301122 0
0.170199 0.294881 0
0.205661 0.28777 0
0.240558 0.279805 0
0.275166 0.271244 0
0.309819 0.262348 0
0.344762 0.253391 0
0.380087 0.244495 0
0.416205 0.236103 0
0.453086 0.22826 0
0.490791 0.221057 0
0.52932 0.214588 0
0.568566 0.208774 0
0.609491 0.204623 0
0.65565 0.205753 0
0.709056 0.214557 0
0.770703 0.233845 0
0.840925 0.266056 0
0.917815 0.311772 0
0.99707 0.366186 0
1 0.420905 0
1 0.469871 0.0420386
1 0.496422 0.0759442
1 0.497688 0.0788586
1 0.498939 0.0817426
0 0.342947 0
0 0.341039 0
0 0.339284 0
0 0.337407 0
0 0.335454 0
0 0.33312 0
0.033463 0.330175 0
0.0724804 0.326482 0
0.110567 0.321904 0
0.147723 0.316335 0
0.184115 0.309895 0
0.220035 0.302785 0
0.255634 0.295094 0
0.291142 0.287037 0
0.326833 0.278859 0
0.362768 0.270619 0
0.399374 0.262791 0
0.436622 0.255406 0
0.474601 0.248569 0
0.513359 0.242374 0
0.552773 0.236774 0
0.594446 0.233402 0
0.641764 0.23563 0
0.696345 0.245655 0
0.759487 0.266255 0
0.831525 0.299702 0
0.91078 0.346502 0
0.992828 0.401953 0
1 0.457984 0
1 0.508553 0.0377813
1 0.539239 0.0770733
1 0.54049 0.0798657
1 0.541711 0.0826581
0 0.3673 0
0 0.364645 0
0 0.362142 0
0 0.35967 0
0 0.357092 0
0 0.354314 0
0.00900282 0.351171 0
0.0483558 0.347478 0
0.0870375 0.34313 0
0.125002 0.338064 0
0.162219 0.332158 0
0.199054 0.325765 0
0.235569 0.318853 0
0.271962 0.311574 0
0.308431 0.304143 0
0.345098 0.296651 0
0.382223 0.289372 0
0.419928 0.28249 0
0.458274 0.276066 0
0.497353 0.270222 0
0.537087 0.264958 0
0.580133 0.262928 0
0.629023 0.266712 0
0.685359 0.278538 0
0.750423 0.30103 0
0.824521 0.336126 0
0.906233 0.384497 0
0.99086 0.440925 0
1 0.497795 0
1 0.549279 0.0355993
1 0.582132 0.077821
1 0.583337 0.0805219
1 0.584512 0.0831922
0 0.392767 0
0 0.389425 0
0 0.386221 0
0 0.383139 0
0 0.380011 0
0 0.376715 0
0 0.373281 0
0.0249485 0.369467 0
0.0639811 0.365209 0
0.10251 0.360418 0
0.140398 0.354955 0
0.178027 0.349126 0
0.215366 0.342855 0
0.252583 0.336278 0
0.289815 0.329534 0
0.32723 0.322759 0
0.364889 0.316014 0
0.403113 0.309636 0
0.441917 0.30367 0
0.481361 0.298192 0
0.522057 0.293873 0
0.566934 0.293675 0
0.61796 0.29958 0
0.676539 0.313787 0
0.744137 0.338827 0
0.820859 0.376379 0
0.904921 0.426337 0
0.991699 0.483452 0
1 0.540642 0
1 0.592432 0.0359808
1 0.625147 0.078294
1 0.62623 0.0807965
1 0.627375 0.0833448
0 0.419394 0
0 0.415442 0
0 0.411612 0
0 0.407919 0
0 0.404273 0
0 0.400488 0
0 0.396719 0
0.00257877 0.392721 0
0.0417945 0.388418 0
0.0806744 0.383764 0
0.119127 0.378622 0
0.157336 0.373175 0
0.195361 0.367422 0
0.233265 0.36141 0
0.271199 0.355261 0
0.309285 0.349081 0
0.347539 0.342885 0
0.386313 0.337041 0
0.425605 0.331518 0
0.465553 0.326528 0
0.508263 0.324193 0
0.555566 0.326345 0
0.609247 0.334966 0
0.670695 0.352178 0
0.741314 0.380362 0
0.820951 0.420768 0
0.907317 0.472404 0
0.995926 0.529976 0
1 0.586847 0
1 0.638239 0.0393072
1 0.668254 0.0784314
1 0.6692 0.0807507
1 0.670314 0.0832532
0 0.447242 0
0 0.442725 0
0 0.438346 0
0 0.434089 0
0 0.429938 0
0 0.425711 0
0 0.421576 0
0 0.417334 0
0.0207065 0.41294 0
0.0597848 0.408301 0
0.0986191 0.403388 0
0.137224 0.398154 0
0.175799 0.392798 0
0.214298 0.387243 0
0.252842 0.381582 0
0.291539 0.375921 0
0.330373 0.370214 0
0.36968 0.364843 0
0.409476 0.359777 0
0.451179 0.356497 0
0.496559 0.356771 0
0.546929 0.361944 0
0.603754 0.373846 0
0.668742 0.394751 0
0.74284 0.426581 0
0.825513 0.470054 0
0.913954 0.523186 0
1 0.580652 0
1 0.636545 0
1 0.686854 0.0458991
1 0.711391 0.0782635
1 0.712322 0.0805371
1 0.713344 0.0829328
0 0.479316 0
0 0.47216 0
0 0.466484 0
0 0.461692 0
0 0.457069 0
0 0.452461 0
0 0.447929 0
0 0.443427 0
0.000869764 0.438865 0
0.0400092 0.43418 0
0.0790723 0.429358 0
0.117998 0.424308 0
0.156909 0.419165 0
0.19588 0.413947 0
0.234943 0.408682 0
0.274159 0.403433 0
0.313527 0.398215 0
0.353429 0.393332 0
0.395087 0.390066 0
0.439658 0.389563 0
0.488228 0.39295 0
0.542153 0.401709 0
0.602792 0.417548 0
0.671809 0.442679 0
0.749462 0.478264 0
0.835309 0.524971 0
0.925338 0.579004 0
1 0.635615 0
1 0.689784 0
1 0.738308 0.0559701
1 0.754528 0.0778821
1 0.755474 0.0801709
1 0.756329 0.0823835
0 0.522225 0
0 0.51043 0
0 0.50071 0
0 0.492821 0
0 0.486336 0
0 0.480797 0
0 0.475807 0
0 0.471031 0
0 0.466255 0
0.0214084 0.461463 0
0.0605631 0.456641 0
0.0997024 0.451698 0
0.138872 0.446693 0
0.178195 0.441718 0
0.217655 0.436759 0
0.257389 0.431922 0
0.297993 0.427817 0
0.340169 0.425116 0
0.384695 0.424628 0
0.432502 0.427298 0
0.484779 0.434348 0
0.54284 0.447257 0
0.607889 0.467628 0
0.681315 0.497368 0
0.762814 0.537011 0
0.850874 0.585794 0
0.941726 0.639902 0
1 0.694697 0
1 0.746303 0.00851453
1 0.792309 0.069337
1 0.797528 0.0771496
1 0.798428 0.079408
1 0.799054 0.0814221
0 0.580148 0
0 0.562463 0
0 0.547448 0
0 0.534951 0
0 0.524559 0
0 0.515877 0
0 0.508415 0
0 0.502007 0
0 0.496239 0
0.00474556 0.490929 0
0.0437171 0.485863 0
0.0829633 0.480964 0
0.122454 0.476173 0
0.162448 0.471763 0
0.203098 0.467887 0
0.244663 0.464775 0
0.287633 0.462913 0
0.332494 0.462806 0
0.380301 0.465492 0
0.431891 0.471824 0
0.488411 0.483024 0
0.55111 0.500603 0
0.620951 0.525841 0
0.698497 0.559884 0
0.783352 0.603021 0
0.872572 0.652689 0
0.962921 0.705394 0
1 0.757321 0
1 0.80557 0.0285496
1 0.839368 0.0738079
1 0.840223 0.0760052
1 0.841001 0.0781872
1 0.84152 0.0800793
0 0.656352 0
0 0.632486 0
0 0.611093 0
0 0.592767 0
0 0.577264 0
0 0.564263 0
0 0.553185 0
0 0.543923 0
0 0.535988 0
0 0.529152 0
0.0347295 0.523186 0
0.0737316 0.517998 0
0.113512 0.513405 0
0.15436 0.509758 0
0.196399 0.507149 0
0.239902 0.505867 0
0.285389 0.506371 0
0.333349 0.509178 0
0.384833 0.515312 0
0.44062 0.525689 0
0.501778 0.541436 0
0.569314 0.563836 0
0.643412 0.593393 0
0.724788 0.631373 0
0.811124 0.675944 0
0.899947 0.724758 0
0.988464 0.774792 0
1 0.822736 0
1 0.867002 0.051606
1 0.881941 0.0724346
1 0.882673 0.0745556
1 0.883375 0.0766461
1 0.883818 0.0785077
0 0.749432 0
0 0.721431 0
0 0.694606 0
0 0.670436 0
0 0.649088 0
0 0.630655 0
0 0.614847 0
0 0.601678 0
0 0.590616 0
0.00317388 0.581445 0
0.0394446 0.573861 0
0.0774701 0.567758 0
0.117052 0.562936 0
0.158465 0.559747 0
0.20177 0.558236 0
0.247227 0.558694 0
0.295354 0.561608 0
0.346532 0.567376 0
0.401846 0.577142 0
0.461952 0.591638 0
0.527581 0.611734 0
0.599222 0.638178 0
0.676921 0.671397 0
0.759747 0.710857 0
0.84564 0.754818 0
0.932296 0.801007 0
1 0.846937 0
1 0.890257 0.02327
1 0.923659 0.0687266
1 0.924361 0.0708019
1 0.925017 0.0728618
1 0.925689 0.0749371
1 0.926055 0.0767681
0 0.849989 0
0 0.822705 0
0 0.794751 0
0 0.767407 0
0 0.741665 0
0 0.718227 0
0 0.697337 0
0 0.679866 0
0.00238041 0.664866 0
0.0321508 0.652491 0
0.0651102 0.642496 0
0.101015 0.634806 0
0.139483 0.629206 0
0.180758 0.626001 0
0.224781 0.625208 0
0.271778 0.627115 0
0.322194 0.632151 0
0.376333 0.640711 0
0.434882 0.653544 0
0.498482 0.671382 0
0.567636 0.694911 0
0.641871 0.72401 0
0.720439 0.75819 0
0.802258 0.796719 0
0.885512 0.837949 0
0.968322 0.879942 0
1 0.920836 0.0039826
1 0.959106 0.0565194
1 0.966079 0.0669871
1 0.96672 0.0690471
1 0.967376 0.071107
1 0.968002 0.073167
1 0.968399 0.0749981
0.00616464 0.948211 0
0.00865187 0.925399 0
0.0103151 0.900542 0
0.012314 0.874678 0
0.015671 0.848829 0
0.021912 0.823835 0
0.0319219 0.800366 0
0.0466163 0.779293 0
0.0659953 0.76083 0
0.0899367 0.745159 0
0.118227 0.732418 0
0.150591 0.722591 0
0.186648 0.715541 0
0.226612 0.711711 0
0.270344 0.71104 0
0.317968 0.713771 0
0.36968 0.720241 0
0.425559 0.730587 0
0.486229 0.745556 0
0.551507 0.765194 0
0.621302 0.789609 0
0.695003 0.818494 0
0.771588 0.851057 0
0.849943 0.886397 0
0.928664 0.92314 0
1 0.959915 0
1 0.995422 0.0450904
1 1 0.0631266
1 1 0.0652018
1 1 0.0672618
1 1 0.069337
1 1 0.0720073
1 1 0.0745556
0.0584573 1 0.0033875
0.0870832 1 0
0.095201 1 0
0.102373 0.980682 0
0.109499 0.95845 0
0.117464 0.935836 0
0.127092 0.913375 0
0.139452 0.892271 0
0.155261 0.872892 0
0.175174 0.855863 0
0.199359 0.841474 0
0.22797 0.83003 0
0.260945 0.821653 0
0.298512 0.8168 0
0.340551 0.815564 0
0.386954 0.81799 0
0.437888 0.824399 0
0.493126 0.834775 0
0.552834 0.849485 0
0.616663 0.868376 0
0.684108 0.891234 0
0.754437 0.917494 0
0.826658 0.946349 0
0.899825 0.976913 0
0.972961 1 0.000488289
1 1 0.0441444
1 1 0.0595102
1 1 0.0613718
1 1 0.0643168
1 1 0.066865
1 1 0.0694285
1 1 0.0719768
1 1 0.0745251
0.0605173 1 0.00288396
0.0977798 1 0.00514229
0.135927 1 0.0074464
0.174517 1 0.00975052
0.193103 1 0
0.206058 1 0
0.219272 1 0
0.234028 1 0
0.250935 0.988434 0
0.270527 0.972366 0
0.293202 0.958022 0
0.320317 0.9467 0
0.351019 0.937819 0
0.386206 0.93228 0
0.425803 0.93019 0
0.46981 0.931685 0
0.518196 0.93695 0
0.570535 0.945846 0
0.626902 0.958511 0
0.686885 0.974777 0
0.749859 0.994247 0
0.815167 1 0
0.881865 1 0
0.949172 1 0.0173495
1 1 0.0535897
1 1 0.0566262
1 1 0.0591745
1 1 0.0617227
1 1 0.064271
1 1 0.0668345
1 1 0.0693828
1 1 0.071931
1 1 0.0744793
0.0624247 1 0.00221256
0.0997024 1 0.00440986
0.137865 1 0.00660716
0.17644 1 0.00883497
0.21529 1 0.0110323
0.254337 1 0.0131991
0.293446 1 0.015198
0.317449 1 0.000335698
0.337545 1 0
