media_metadata/bennett_5/lut.cube
TITLE "Generated by Resolve"
LUT_3D_SIZE 5
0 0 0
0.264408 0 0.00350958
0.610376 0 0
0.926528 0 0
1 0 0.0626383
0 0.226917 0
0.213413 0.209537 0
0.479164 0.125841 0
0.829389 0.121431 0
1 0.328206 0.0750134
0 0.419394 0
0.0417945 0.388418 0
0.347539 0.342885 0
0.741314 0.380362 0
1 0.670314 0.0832532
0.00616464 0.948211 0
0.0659953 0.76083 0
0.36968 0.720241 0
0.928664 0.92314 0
1 1 0.0745556
0.067277 1 0
0.380545 1 0.0127565
0.703929 1 0.0332036
1 1 0.0537118
1 1 0.0742199
0 0 0.243427
0.261753 0 0.247288
0.582818 0 0.24062
0.915282 0 0.238224
1 0 0.33492
0 0.230396 0.179202
0.285756 0.297459 0.263752
0.507179 0.185748 0.16524
0.768154 0.07187 0.0669566
1 0.271641 0.282521
0 0.418814 0
0.103258 0.452827 0.0589761
0.417945 0.42948 0.0510567
0.651209 0.304494 0
1 0.379416 0.0199893
0 0.78703 0
0 0.604501 0
0.192355 0.56846 0
0.509163 0.520195 0
1 0.690288 0
0.0575418 1 0.27126
0.372137 1 0.291447
0.436362 1 0.0261234
0.746151 1 0.0043946
1 1 0.353124
0 0 0.564126
0.250324 0 0.555108
0.556451 0 0.545495
0.88867 0 0.538811
1 0.00900282 0.614267
0 0.190204 0.442145
0.198413 0.227695 0.480446
0.506127 0.204852 0.475822
0.750881 0.0762493 0.382666
1 0.0967117 0.421546
0 0.408072 0.289281
0.115419 0.477653 0.381445
0.606744 0.632731 0.557931
0.733944 0.418555 0.354025
0.946792 0.245991 0.194842
0 0.751598 0.257816
0 0.604547 0.117189
0.275532 0.656916 0.199954
0.594995 0.622736 0.180758
0.818021 0.476493 0.0371099
0.0487373 1 0.557809
0.0657511 1 0.296818
0.0201267 0.788907 0
0.34197 0.740642 0
0.672663 0.700114 0
0 0 0.886107
0.222446 0 0.883909
0.536095 0 0.861616
0.878202 0 0.861189
1 0.0183413 0.896406
0 0.181155 0.750988
0.0931563 0.142763 0.723552
0.419425 0.121096 0.713237
0.722072 0.0629587 0.682383
1 0.0656443 0.705272
0 0.420996 0.615366
0 0.386328 0.595315
0.477836 0.521904 0.735225
0.778286 0.485542 0.719432
0.938582 0.259312 0.529839
0 0.884916 0.712612
0 0.593271 0.423865
0.326787 0.718807 0.574777
0.897704 0.939361 0.819425
0.942779 0.632914 0.521477
0.0397192 1 0.847425
0 1 0.506142
0 0.780636 0.236545
0.430396 0.835828 0.323339
0.750393 0.794537 0.298985
0 0 1
0.236469 0 1
0.557061 0.00384527 1
0.878538 0.0162203 1
1 0.0276341 1
0 0.321126 1
0.120775 0.188037 1
0.380499 0.0950179 1
0.704433 0.0599832 0.999329
1 0.174899 1
0 0.664576 1
0 0.363439 0.893629
0.267399 0.33341 0.878355
0.620829 0.331121 0.890608
0.906798 0.243366 0.835706
0.0201724 1 1
0 0.620356 0.773785
0.160769 0.587152 0.75668
0.77583 0.835767 1
1 0.775738 0.970764
0.030518 1 1
0.154101 1 1
0 0.770153 0.550881
0.529061 0.942336 0.751553
1 1 1
