media_metadata/bennett_5/lut.cube
TITLE "Generated by Resolve"
LUT_3D_SIZE 9
0 0 0
0.10547 0 0
0.264408 0 0.00350958
0.44065 0 0
0.610376 0 0
0.775051 0 0
0.926528 0 0
1 0 0.0484627
1 0 0.0626383
0 0.098558 0
0.116503 0.096025 0
0.256062 0.0764172 0
0.392905 0.0430304 0
0.540246 0.00988785 0
0.697734 0 0
0.893202 0.0295262 0
1 0.153017 0.0528725
1 0.158511 0.0657969
0 0.226917 0
0.0729381 0.228443 0
0.213413 0.209537 0
0.341909 0.168002 0
0.479164 0.125841 0
0.631815 0.0970626 0
0.829389 0.121431 0
1 0.289952 0.0238804
1 0.328206 0.0750134
0 0.31957 0
0 0.314839 0
0.134066 0.301122 0
0.275166 0.271244 0
0.416205 0.236103 0
0.568566 0.208774 0
0.770703 0.233845 0
1 0.420905 0
1 0.498939 0.0817426
0 0.419394 0
0 0.404273 0
0.0417945 0.388418 0
0.195361 0.367422 0
0.347539 0.342885 0
0.508263 0.324193 0
0.741314 0.380362 0
1 0.586847 0
1 0.670314 0.0832532
0 0.580148 0
0 0.524559 0
0 0.496239 0
0.122454 0.476173 0
0.287633 0.462913 0
0.488411 0.483024 0
0.783352 0.603021 0
1 0.80557 0.0285496
1 0.84152 0.0800793
0.00616464 0.948211 0
0.015671 0.848829 0
0.0659953 0.76083 0
0.186648 0.715541 0
0.36968 0.720241 0
0.621302 0.789609 0
0.928664 0.92314 0
1 1 0.0652018
1 1 0.0745556
0.0639811 1 0.00120546
0.216754 1 0.00958267
0.37377 1 0.0176394
0.520424 1 0.010956
0.672938 1 0.0080415
0.857496 1 0.0437324
1 1 0.0539559
1 1 0.0641794
1 1 0.074403
0.067277 1 0
0.22118 1 0.00263981
0.380545 1 0.0127565
0.541634 1 0.0229648
0.703929 1 0.0332036
0.867048 1 0.0434577
1 1 0.0537118
1 1 0.0639658
1 1 0.0742199
0 0 0.0936446
0.100374 0 0.0997787
0.266194 0 0.106615
0.432837 0 0.103807
0.596353 0 0.0897231
0.757183 0 0.076524
0.927275 0 0.106477
1 0 0.183185
1 0 0.197177
0 0.0996567 0.0857252
0.128817 0.109377 0.104402
0.262867 0.0955367 0.096376
0.394675 0.0619821 0.0660258
0.532509 0.017319 0.0261692
0.684916 0 0.00117494
0.858076 0 0.00404364
1 0.103044 0.134218
1 0.162753 0.200015
0 0.236423 0.0432593
0.0977493 0.257115 0.0763256
0.251759 0.255772 0.082063
0.372457 0.212451 0.0413672
0.486412 0.148089 0
0.623468 0.100053 0
0.782055 0.075761 0
1 0.167758 0.0239109
1 0.332174 0.209033
0 0.327062 0
0.00619516 0.342901 0
0.181262 0.350484 0
0.318608 0.322606 0
0.434913 0.266484 0
0.56466 0.215671 0
0.717006 0.185382 0
0.948821 0.246113 0
1 0.479408 0.18938
0 0.419272 0
0 0.413642 0
0.0622721 0.411505 0
0.219562 0.396643 0
0.359258 0.362783 0
0.499763 0.324804 0
0.654994 0.297841 0
0.895079 0.360571 0
1 0.613077 0.145678
0 0.541024 0
0 0.511101 0
0 0.495171 0
0.118242 0.478721 0
0.27396 0.456962 0
0.429404 0.43238 0
0.602533 0.42269 0
0.885313 0.528771 0
1 0.788739 0.146929
0 0.86067 0
0 0.718257 0
0 0.635096 0
0.0471962 0.596094 0
0.205707 0.574334 0
0.383032 0.56936 0
0.616571 0.618891 0
0.964935 0.792813 0
1 1 0.212116
0.0595865 1 0.137041
0.20119 1 0.134295
0.205676 1 0
0.240742 0.942382 0
0.353506 0.889815 0
0.54815 0.904097 0
0.821973 0.995377 0
1 1 0.148165
1 1 0.211978
0.0625925 1 0.130907
0.217029 1 0.140124
0.376394 1 0.150256
0.537514 1 0.160479
0.699809 1 0.170733
0.862959 1 0.181003
1 1 0.191272
1 1 0.201541
1 1 0.211795
0 0 0.243427
0.104311 0 0.242786
0.261753 0 0.247288
0.422934 0 0.250355
0.582818 0 0.24062
0.742565 0 0.227451
0.915282 0 0.238224
1 0 0.311528
1 0 0.33492
0 0.0925612 0.217288
0.115633 0.101991 0.232227
0.259831 0.102007 0.240009
0.394369 0.0749218 0.22298
0.527184 0.0259403 0.186694
0.674434 0 0.157763
0.834577 0 0.144762
1 0.0315862 0.218067
1 0.165789 0.343542
0 0.230396 0.179202
0.0975204 0.264759 0.222782
0.285756 0.297459 0.263752
0.406455 0.259129 0.231937
0.507179 0.185748 0.16524
0.622415 0.113344 0.100267
0.768154 0.07187 0.0669566
0.955108 0.0792096 0.0827497
1 0.271641 0.282521
0 0.327459 0.0928511
0.0224613 0.362554 0.144213
0.231357 0.403281 0.198901
0.388266 0.399817 0.203159
0.489143 0.334615 0.139956
0.581598 0.247333 0.0533455
0.709758 0.189151 0
0.872053 0.166766 0
1 0.313893 0.147005
0 0.418814 0
0 0.426322 0.0154269
0.103258 0.452827 0.0589761
0.285512 0.464912 0.0829633
0.417945 0.42948 0.0510567
0.525353 0.361822 0
0.651209 0.304494 0
0.806561 0.274083 0
1 0.379416 0.0199893
0 0.528084 0
0 0.511055 0
0 0.506798 0
0.141787 0.505882 0
0.300969 0.489677 0
0.441428 0.452873 0
0.583627 0.41297 0
0.744625 0.388586 0
1 0.497688 0
0 0.78703 0
0 0.650446 0
0 0.604501 0
0.0300755 0.586633 0
0.192355 0.56846 0
0.350591 0.54519 0
0.509163 0.520195 0
0.700603 0.52607 0
1 0.690288 0
0.0547341 1 0.276478
0.0427863 1 0.124514
0 0.869032 0
0.00766003 0.753231 0
0.135073 0.700374 0
0.296056 0.67715 0
0.489006 0.684764 0
0.760708 0.770932 0
1 0.9944 0.110094
0.0575418 1 0.27126
0.212741 1 0.2813
0.372137 1 0.291447
0.40763 1 0.168322
0.436362 1 0.0261234
0.54435 1 0
0.746151 1 0.0043946
1 1 0.153231
1 1 0.353124
0 0 0.402899
0.105959 0 0.39472
0.25774 0 0.395941
0.412955 0 0.400153
0.56968 0 0.392416
0.728664 0 0.37995
0.900206 0 0.384176
1 0 0.440986
1 0.00444038 0.474266
0 0.0779431 0.354772
0.0884108 0.0832074 0.361608
0.237903 0.0866255 0.369802
0.380957 0.0696422 0.363058
0.517571 0.0273136 0.337057
0.662989 0 0.31046
0.819715 0 0.294209
1 0 0.329137
1 0.152911 0.468772
0 0.2103 0.306477
0.0594034 0.240375 0.340078
0.25774 0.277729 0.381735
0.412207 0.27393 0.386389
0.521218 0.212634 0.337987
0.625711 0.130449 0.270497
0.760189 0.0738689 0.227039
0.920989 0.0490272 0.213046
1 0.166918 0.333288
0 0.316487 0.231113
0.00373846 0.354055 0.279942
0.241642 0.42005 0.356909
0.448844 0.467536 0.413703
0.551537 0.409888 0.362066
0.620996 0.303731 0.261677
0.714702 0.208225 0.172808
0.855253 0.159503 0.131945
1 0.182956 0.163867
0 0.414954 0.141985
0 0.429221 0.169986
0.132479 0.484993 0.242603
0.36112 0.542916 0.314687
0.517922 0.536873 0.315953
0.600855 0.451057 0.23125
0.676158 0.343709 0.123613
0.798947 0.277073 0.0603494
0.969116 0.258991 0.0490272
0 0.523827 0.0587015
0 0.511376 0.0565499
0 0.523995 0.0835126
0.193133 0.558022 0.133593
0.381338 0.572656 0.159335
0.510918 0.530419 0.120027
0.613153 0.453773 0.0419928
0.737331 0.391669 0
0.897292 0.363394 0
0 0.750408 0.102144
0 0.626978 0
0 0.60383 0
0.0371405 0.598932 0
0.216617 0.596994 0
0.377462 0.578195 0
0.519249 0.538933 0
0.6636 0.498375 0
0.833371 0.481392 0
0.0407416 1 0.409659
0 0.956359 0.140581
0 0.765423 0
0 0.696025 0
0.10161 0.674708 0
0.265995 0.654795 0
0.426719 0.631205 0
0.588678 0.607919 0
0.806912 0.640177 0
0.0531624 1 0.414069
0.208392 1 0.424018
0.233829 1 0.30251
0.122759 1 0.029221
0.127565 0.882536 0
0.238483 0.813443 0
0.400107 0.79028 0
0.611521 0.81529 0
0.925978 0.943984 0
0 0 0.564126
0.106813 0 0.554925
0.250324 0 0.555108
0.401007 0 0.554726
0.556451 0 0.545495
0.715206 0 0.533379
0.88867 0 0.538811
1 0 0.582071
1 0.00900282 0.614267
0 0.0648966 0.505516
0.0517586 0.0602274 0.501228
0.203021 0.0581826 0.500679
0.354498 0.0462959 0.495796
0.501045 0.0159762 0.480186
0.650065 0 0.460868
0.806851 0 0.446326
0.995346 0 0.467216
1 0.123934 0.586603
0 0.190204 0.442145
0.00225834 0.200092 0.452644
0.198413 0.227695 0.480446
0.372351 0.239277 0.497215
0.506127 0.204852 0.475822
0.619883 0.135821 0.425147
0.750881 0.0762493 0.382666
0.904845 0.0428626 0.362097
1 0.0967117 0.421546
0 0.301366 0.368948
0 0.320684 0.394614
0.19237 0.382956 0.461921
0.42121 0.448157 0.532433
0.57261 0.440482 0.533455
0.652247 0.348379 0.453941
0.727153 0.234607 0.35436
0.849439 0.163272 0.295949
1 0.137636 0.281361
0 0.408072 0.289281
0 0.415869 0.307424
0.115419 0.477653 0.381445
0.386084 0.573892 0.489525
0.606744 0.632731 0.557931
0.693782 0.557015 0.487694
0.733944 0.418555 0.354025
0.809277 0.301305 0.242588
0.946792 0.245991 0.194842
0 0.523095 0.213931
0 0.50779 0.20827
0 0.530282 0.244358
0.23595 0.603525 0.334539
0.482414 0.675868 0.421088
0.639338 0.666133 0.418387
0.706691 0.560937 0.313771
0.767865 0.436347 0.188602
0.886076 0.362844 0.118624
0 0.751598 0.257816
0 0.62034 0.123033
0 0.604547 0.117189
0.0533761 0.619348 0.146197
0.275532 0.656916 0.199954
0.46772 0.67126 0.225803
0.594995 0.622736 0.180758
0.694499 0.540475 0.0984054
0.818021 0.476493 0.0371099
0.0128328 1 0.532998
0 0.903181 0.226566
0 0.726848 0.0368658
0 0.692958 0.012253
0.107866 0.686305 0.0185092
0.289509 0.682918 0.0278172
0.451957 0.662837 0.0166323
0.595254 0.623148 0
0.741527 0.583749 0
0.0487373 1 0.557809
0.203983 1 0.567742
0.0657511 1 0.296818
0 0.886885 0.011902
0.0201267 0.788907 0
0.177569 0.76141 0
0.34197 0.740642 0
0.50396 0.717418 0
0.672663 0.700114 0
0 0 0.726604
0.0990311 0 0.721706
0.236774 0 0.719341
0.38706 0 0.712383
0.543297 0 0.700542
0.705242 0 0.690898
0.88191 0 0.700069
1 0 0.730999
1 0.01355 0.75494
0 0.060029 0.665232
0.0204166 0.0464942 0.654459
0.171359 0.0352483 0.645121
0.326848 0.0215457 0.63595
0.481514 0 0.624414
0.635859 0 0.61091
0.794293 0 0.599237
0.985275 0 0.622095
1 0.115297 0.723079
0 0.179034 0.590326
0 0.169421 0.58378
0.134234 0.173678 0.588342
0.309758 0.180407 0.597345
0.463783 0.164263 0.591028
0.599084 0.120226 0.563897
0.738277 0.0725872 0.533944
0.892256 0.0398871 0.515267
1 0.0673838 0.550591
0 0.290623 0.514748
0 0.287419 0.517006
0.111101 0.317418 0.548791
0.334844 0.371374 0.603738
0.519692 0.393133 0.631296
0.639002 0.34313 0.594751
0.726894 0.246128 0.516381
0.84271 0.168231 0.456016
0.994858 0.129198 0.430457
0 0.402548 0.439826
0 0.395789 0.44123
0.0545815 0.433097 0.485771
0.328878 0.528634 0.587396
0.589487 0.623652 0.688502
0.736431 0.609598 0.683406
0.785534 0.484062 0.570138
0.831464 0.337575 0.437354
0.942702 0.251362 0.363806
0 0.537392 0.385382
0 0.50042 0.357061
0 0.515862 0.3832
0.22356 0.600443 0.480781
0.525902 0.724926 0.617929
0.757961 0.791699 0.694575
0.830503 0.698085 0.606073
0.842542 0.528389 0.44036
0.90045 0.391318 0.308492
0 0.794919 0.461967
0 0.621393 0.283024
0 0.60119 0.272511
0.0564279 0.629236 0.314534
0.331792 0.715312 0.418326
0.592584 0.797848 0.515816
0.748135 0.783032 0.508278
0.802152 0.661677 0.387869
0.852522 0.525048 0.251118
0.0291447 1 0.695109
0 0.900191 0.378958
0 0.71574 0.186679
0 0.693874 0.175448
0.126741 0.709148 0.206073
0.353948 0.748455 0.262501
0.548348 0.762173 0.288655
0.674617 0.710506 0.241535
0.772274 0.625391 0.157198
0.0442512 1 0.702296
0.199344 1 0.712093
0 1 0.361471
0 0.82829 0.110704
0.00343328 0.780072 0.0727855
0.181888 0.771557 0.0768139
0.363012 0.766873 0.0843671
0.525765 0.745968 0.0723583
0.67068 0.706844 0.0388952
0 0 0.886107
0.08159 0 0.890547
0.222446 0 0.883909
0.375235 0 0.872694
0.536095 0 0.861616
0.705058 0 0.856992
0.878202 0 0.861189
1 0.00634775 0.882094
1 0.0183413 0.896406
0 0.0679637 0.831464
0 0.0428931 0.813077
0.150072 0.0251774 0.799313
0.306981 0.00712596 0.786465
0.464271 0 0.774578
0.62211 0 0.763348
0.787137 0 0.758373
0.988952 0 0.793057
1 0.134463 0.877409
0 0.181155 0.750988
0 0.156222 0.732509
0.0931563 0.142763 0.723552
0.258549 0.134203 0.719005
0.419425 0.121096 0.713237
0.571466 0.0952163 0.699855
0.722072 0.0629587 0.682383
0.879774 0.0362554 0.669001
1 0.0656443 0.705272
0 0.293828 0.675608
0 0.269306 0.658396
0.0452583 0.266987 0.660151
0.239414 0.286442 0.680385
0.42887 0.306249 0.702983
0.581415 0.287633 0.694972
0.702861 0.227558 0.652964
0.830747 0.165164 0.609567
0.982589 0.126116 0.585824
0 0.420996 0.615366
0 0.381659 0.584527
0 0.386328 0.595315
0.223606 0.439414 0.650874
0.477836 0.521904 0.735225
0.674662 0.553872 0.773709
0.778286 0.485542 0.719432
0.838819 0.357458 0.610285
0.938582 0.259312 0.529839
0 0.598337 0.604181
0 0.494743 0.509346
0 0.491432 0.514748
0.154147 0.54728 0.578668
0.46569 0.676417 0.714931
0.760403 0.802213 0.847593
0.90013 0.778164 0.832578
0.916487 0.617014 0.683055
0.932158 0.437675 0.516548
0 0.884916 0.712612
0 0.643351 0.465141
0 0.593271 0.423865
0.0299077 0.614649 0.456519
0.326787 0.718807 0.574777
0.65742 0.867613 0.737346
0.897704 0.939361 0.819425
0.957031 0.830121 0.715267
0.942779 0.632914 0.521477
0.0346532 1 0.847959
0 0.951095 0.592874
0 0.717617 0.350317
0 0.690654 0.333898
0.134249 0.722713 0.381033
0.423133 0.819135 0.496254
0.695506 0.910613 0.603616
0.849256 0.892088 0.59292
0.891051 0.757305 0.458839
0.0397192 1 0.847425
0.194995 1 0.857374
0 1 0.506142
0 0.810712 0.255421
0 0.780636 0.236545
0.202182 0.796109 0.267002
0.430396 0.835828 0.323339
0.624979 0.848463 0.348196
0.750393 0.794537 0.298985
0 0 0.953918
0.0810864 0 0.991974
0.225925 0 1
0.381628 0 1
0.544076 0 1
0.710369 0 1
0.879408 0 1
1 0.017319 1
1 0.0228733 1
0 0.123629 0.965789
0.0189364 0.0776226 0.981781
0.149798 0.0354925 0.966278
0.298543 0.00723278 0.946883
0.455222 0 0.933562
0.619547 0 0.927886
0.801236 0 0.938308
1 0.0548867 0.977569
1 0.176745 1
0 0.247959 0.937057
0 0.170581 0.9037
0.0739452 0.133227 0.876188
0.231357 0.114565 0.864744
0.390509 0.0969863 0.855009
0.548562 0.0767224 0.844648
0.706569 0.0539559 0.833555
0.873121 0.0382391 0.829404
1 0.0945144 0.884367
0 0.37145 0.8907
0 0.273121 0.821241
0.0119631 0.24596 0.80177
0.179431 0.236957 0.797986
0.352712 0.235019 0.800519
0.517174 0.224231 0.797879
0.666224 0.193179 0.780865
0.812619 0.153262 0.757641
0.970169 0.122087 0.741619
0 0.523919 0.860548
0 0.386908 0.74847
0 0.360647 0.730251
0.135378 0.36733 0.741588
0.349737 0.404761 0.780362
0.555993 0.439384 0.818616
0.707164 0.416892 0.807767
0.812787 0.337407 0.747417
0.927306 0.25742 0.687236
0 0.732113 0.884169
0 0.521813 0.695537
0 0.473716 0.656626
0.0756695 0.487282 0.676966
0.338537 0.565621 0.758404
0.625849 0.677928 0.873091
0.834669 0.719387 0.921202
0.918975 0.629343 0.845075
0.948577 0.467765 0.701946
0.00170901 0.996201 0.97322
0 0.724987 0.70779
0 0.586877 0.578347
0 0.586465 0.587015
0.252064 0.659861 0.669261
0.599863 0.821256 0.838773
0.928008 0.977462 1
1 0.942123 0.97615
1 0.747158 0.791943
0.0295109 1 0.993042
0 1 0.860899
0 0.745815 0.541375
0 0.682475 0.487434
0.110048 0.709453 0.526574
0.428763 0.832181 0.664591
0.784894 1 0.851469
1 1 0.938064
1 0.956588 0.819364
0.0351415 1 0.993072
0.190433 1 1
0.00430304 1 0.724804
0 0.813062 0.42063
0 0.778073 0.39646
0.21387 0.813626 0.447105
0.511162 0.9178 0.570199
0.791135 1 0.684108
0.942336 0.993194 0.669367
0 0 1
0.0786755 0 1
0.236469 0 1
0.396979 0 1
0.557061 0.00384527 1
0.717693 0.0104372 1
0.878538 0.0162203 1
1 0.0221256 1
1 0.0276341 1
0 0.151125 1
0.0941787 0.155688 1
0.217609 0.121477 1
0.347799 0.0796674 1
0.495171 0.0508125 1
0.66096 0.0467689 1
0.844617 0.0794842 1
1 0.150134 1
1 0.19292 1
0 0.321126 1
0.0542916 0.276982 1
0.120775 0.188037 1
0.235218 0.127581 1
0.380499 0.0950179 1
0.537804 0.0734569 1
0.704433 0.0599832 0.999329
0.896345 0.0751049 1
1 0.174899 1
0 0.492943 1
0 0.378576 1
0.0200046 0.2636 0.97818
0.154391 0.22179 0.94641
0.314672 0.204425 0.937102
0.476661 0.188006 0.929549
0.636042 0.166735 0.919814
0.794766 0.141299 0.908186
0.962707 0.122683 0.903334
0 0.664576 1
0 0.496559 0.998581
0 0.363439 0.893629
0.0917983 0.336645 0.875517
0.267399 0.33341 0.878355
0.451164 0.339498 0.889738
0.620829 0.331121 0.890608
0.766369 0.29308 0.867842
0.906798 0.243366 0.835706
0.0116884 0.840299 1
0 0.660014 0.978973
0 0.479088 0.823209
0.0261082 0.453162 0.805997
0.22623 0.470207 0.827924
0.464759 0.528283 0.887098
0.689296 0.578607 0.940856
0.836835 0.550408 0.924132
0.922148 0.448264 0.841062
0.0201724 1 1
0.000518807 0.894606 1
0 0.620356 0.773785
0 0.564858 0.72752
0.160769 0.587152 0.75668
0.454231 0.692012 0.864897
0.77583 0.835767 1
0.996765 0.888136 1
1 0.775738 0.970764
0.0240787 1 1
0.164385 1 1
0 0.845075 0.804425
0 0.675669 0.643412
0.0647746 0.67863 0.655833
0.352438 0.770748 0.757565
0.735988 0.965667 0.961624
1 1 1
1 1 1
0.030518 1 1
0.185809 1 1
0.154101 1 1
0 0.847456 0.61883
0 0.770153 0.550881
0.19263 0.802762 0.595972
0.529061 0.942336 0.751553
0.906966 1 0.959899
1 1 1
