media_metadata/bennett_8/lut2.cube
TITLE "Generated by Resolve"
LUT_3D_SIZE 9
0 0 0
0.0791485 6.10361e-05 6.10361e-05
0.157504 0.000289921 0.000289921
0.238621 0 0
0.333227 0 0
0.509483 0 0
0.691875 0 0
0.8121 0 0
0.920714 0 0
0 0.079118 0
0.0785534 0.0788434 0
0.156374 0.0785229 0
0.237171 0.0775616 0
0.331624 0.0729229 0
0.507774 0.0461585 0
0.690517 0.0179294 0
0.81117 0.00674449 0
0.920394 0 0
0 0.156741 0
0.0775311 0.156374 0
0.155444 0.156161 0
0.23653 0.155474 0
0.331456 0.151324 0
0.508263 0.125216 0
0.691905 0.0978866 0
0.813626 0.0877699 0
0.924147 0.0812695 0
0 0.235737 0
0.075288 0.235904 0
0.153933 0.236439 0
0.235981 0.236713 0
0.332097 0.233738 0
0.510277 0.209003 0
0.695537 0.183291 0
0.819303 0.175219 0
0.933272 0.172183 0
0 0.321324 0
0.0662242 0.322591 0
0.146532 0.324758 0
0.23032 0.326787 0
0.328862 0.326253 0
0.513024 0.3075 0
0.713466 0.296971 0
0.860685 0.312352 0
0.995407 0.330053 0
0 0.440208 0
0 0.444404 0
0.083711 0.456321 0
0.185779 0.476631 0
0.307652 0.499413 0
0.510124 0.49897 0
0.721996 0.49987 0
0.872206 0.518242 0
1 0.539544 0.00970474
0 0.606531 0
0 0.632868 0
0.0662089 0.659983 0
0.176806 0.688823 0
0.300923 0.713832 0
0.507317 0.717327 0
0.721111 0.720134 0
0.869963 0.737163 0
1 0.751659 0.000656138
0 0.795316 0
0.0160067 0.824918 0
0.124346 0.855131 0
0.236454 0.885451 0
0.357351 0.907271 0.0192874
0.553689 0.900694 0.0126955
0.751232 0.887266 0
0.883406 0.887602 0
1 0.889784 0.00180056
0 0.984604 0
0.0869917 1 0.00788891
0.182498 1 0.0252842
0.276768 1 0.0377813
0.382696 1 0.0446174
0.569131 1 0.0281376
0.760922 1 0.00895705
0.889479 1 0.00569161
1 1 0.00541695
0.00015259 0.00015259 0.0746166
0.0795758 0.000488289 0.0749523
0.157824 0.000610361 0.0750744
0.238895 0 0.0743877
0.333455 0 0.0698558
0.50959 0 0.043061
0.692073 0 0.0145724
0.812314 0 0.00299077
0.920928 0 0
1.5259e-05 0.0793774 0.0744793
0.0787213 0.0790112 0.0740978
0.156573 0.0787213 0.0738231
0.237369 0.07776 0.0728618
0.331853 0.0731518 0.0682536
0.508019 0.0464027 0.0415045
0.690837 0.0182498 0.0133364
0.811551 0.00712596 0.00222782
0.920775 0 0
0 0.156939 0.0734722
0.0776379 0.156481 0.0730144
0.155734 0.156451 0.0729686
0.236881 0.155825 0.0723583
0.331884 0.151751 0.0682841
0.508782 0.125734 0.0422675
0.692561 0.0985428 0.0150607
0.814435 0.0885939 0.00511177
0.924971 0.0821088 0
0 0.236103 0.0708629
0.0756085 0.236225 0.070985
0.154528 0.237018 0.0717784
0.236683 0.237415 0.0721599
0.332799 0.23444 0.0691997
0.51133 0.210056 0.0448005
0.696834 0.184588 0.0193484
0.821134 0.177066 0.0118105
0.937407 0.176318 0.0110628
0 0.322118 0.0611276
0.0671702 0.323537 0.0625467
0.147646 0.325887 0.0648966
0.231678 0.328161 0.067155
0.330663 0.328054 0.0670634
0.518685 0.313161 0.0521706
0.72224 0.30573 0.0447395
0.870115 0.321782 0.0607919
1 0.339376 0.0783703
0 0.441825 0
0 0.447181 0
0.0898451 0.46247 0.00709544
0.195483 0.486336 0.0309606
0.316609 0.50837 0.0529946
0.520027 0.508873 0.0534981
0.732357 0.510231 0.0548562
0.882246 0.528283 0.0729229
1 0.550027 0.0946517
0 0.615854 0
0 0.641962 0
0.0764782 0.670268 0
0.187213 0.699229 0.0227054
0.311376 0.7243 0.0477607
0.517937 0.727947 0.0514076
0.731899 0.730938 0.0544137
0.878614 0.745815 0.0692912
1 0.757702 0.081178
0 0.805615 0
0.0264744 0.83537 0.0218509
0.135225 0.865995 0.0524605
0.246281 0.895293 0.0817731
0.365545 0.915465 0.101946
0.559457 0.906462 0.0929427
0.755718 0.891752 0.078233
0.887297 0.891508 0.0779736
1 0.893324 0.0797894
0 0.993698 0.0669566
0.0937819 1 0.0891585
0.187793 1 0.105043
0.281071 1 0.116548
0.386511 1 0.122911
0.572534 1 0.10602
0.763958 1 0.0864576
0.8925 1 0.0831769
1 1 0.0828412
0.000885023 0.000885023 0.14612
0.0802014 0.00111391 0.146349
0.158419 0.0011902 0.146426
0.239429 0.000442512 0.145678
0.333944 0 0.141115
0.510002 0 0.11426
0.692546 0 0.0858167
0.812802 0 0.0742504
0.921416 0 0.0658427
0.000518807 0.079881 0.145754
0.0791638 0.0794537 0.145312
0.157046 0.0791943 0.145068
0.237842 0.078233 0.144106
0.332326 0.0736248 0.139498
0.508568 0.046952 0.112825
0.691447 0.0188602 0.0847334
0.812238 0.00781262 0.0736858
0.921492 6.10361e-05 0.065919
0 0.157427 0.144717
0.0781109 0.15697 0.144259
0.156283 0.157015 0.144305
0.237522 0.156466 0.143771
0.332525 0.152407 0.139696
0.509636 0.126589 0.113878
0.693523 0.0995041 0.0868086
0.815534 0.0896773 0.0769818
0.926299 0.0834211 0.0707256
0 0.236713 0.142229
0.0763561 0.236988 0.142504
0.155428 0.237919 0.143435
0.237736 0.238468 0.143984
0.333974 0.23563 0.141146
0.512703 0.211429 0.11696
0.698451 0.186221 0.0917372
0.823255 0.179171 0.0847028
0.943282 0.182177 0.0877089
0 0.323079 0.132845
0.068452 0.324834 0.1346
0.149142 0.327382 0.137163
0.233555 0.330022 0.139803
0.333608 0.330999 0.14078
0.525063 0.319524 0.129305
0.732174 0.315679 0.12546
0.879149 0.330816 0.140581
1 0.349493 0.159274
0 0.443778 0.0591745
0.00120546 0.451957 0.0673533
0.0974289 0.470039 0.0854505
0.205081 0.495933 0.11133
0.325963 0.517723 0.133135
0.530571 0.519417 0.134813
0.743038 0.520912 0.136324
0.892958 0.538994 0.154406
1 0.560891 0.176303
0 0.625513 0.0197604
0 0.651637 0.0458839
0.0870832 0.680873 0.0751049
0.197482 0.709499 0.103746
0.322103 0.735012 0.129259
0.529061 0.739071 0.133318
0.742184 0.741207 0.135454
0.88716 0.75436 0.148592
1 0.76376 0.158007
0 0.816327 0.0735637
0.037232 0.846128 0.10338
0.146471 0.877256 0.134493
0.255467 0.904463 0.161715
0.372702 0.922621 0.179858
0.565072 0.912077 0.169314
0.760128 0.896162 0.153399
0.891402 0.895598 0.152834
1 0.896986 0.154238
0.00154116 1 0.146777
0.0999924 1 0.16614
0.192782 1 0.180804
0.285451 1 0.191699
0.390478 1 0.19765
0.576165 1 0.180423
0.767208 1 0.160494
0.895735 1 0.157183
1 1 0.156817
0.000885023 0.000885023 0.226917
0.0799725 0.000885023 0.226902
0.158236 0.00102235 0.227054
0.239216 0.000228885 0.226261
0.333715 0 0.221668
0.509743 0 0.194781
0.692287 0 0.166354
0.812573 0 0.154818
0.921157 0 0.146365
0.000289921 0.0796521 0.226307
0.0788586 0.0791333 0.225788
0.156786 0.0789349 0.225589
0.237598 0.0779889 0.224643
0.331975 0.0732738 0.219944
0.508415 0.0467842 0.193439
0.691371 0.0187839 0.165438
0.812253 0.00782788 0.154498
0.921614 0.000167849 0.146838
0 0.157183 0.225269
0.0779278 0.156771 0.224857
0.156146 0.156863 0.224964
0.237446 0.156405 0.224491
0.332509 0.152377 0.220462
0.509819 0.126757 0.194858
0.693858 0.0998245 0.167926
0.815961 0.0901198 0.158206
0.92694 0.084062 0.152148
0 0.236652 0.222965
0.0764324 0.237064 0.223377
0.155612 0.238117 0.22443
0.238087 0.238819 0.225132
0.334539 0.236194 0.222492
0.513481 0.212207 0.19852
0.69958 0.187335 0.173648
0.825299 0.181231 0.167544
0.948882 0.187793 0.174105
0 0.323445 0.214008
0.0690623 0.325429 0.215991
0.149996 0.328237 0.218799
0.234836 0.331319 0.221881
0.33753 0.334905 0.225483
0.531792 0.326253 0.216831
0.74136 0.324849 0.215427
0.88777 0.339437 0.230015
1 0.359304 0.249866
0 0.445335 0.141527
0.0065156 0.457252 0.153445
0.105928 0.478538 0.174731
0.213947 0.504799 0.200992
0.33489 0.52665 0.222843
0.540444 0.52929 0.225483
0.752758 0.530632 0.226825
0.902968 0.549004 0.245197
1 0.571283 0.267475
0 0.63418 0.109209
0 0.661143 0.136187
0.0970016 0.690776 0.16582
0.207477 0.719493 0.194522
0.332128 0.745052 0.220081
0.539605 0.749599 0.224643
0.750469 0.749493 0.224537
0.893675 0.760876 0.23592
1 0.768688 0.243732
0 0.826322 0.164355
0.047425 0.856336 0.194369
0.15642 0.88719 0.225223
0.263813 0.912825 0.250858
0.378225 0.928145 0.266178
0.56936 0.916365 0.254398
0.763806 0.89984 0.237873
0.894652 0.898863 0.236896
1 0.899901 0.237934
0.0091249 1 0.235157
0.105287 1 0.252232
0.196536 1 0.265354
0.288869 1 0.275914
0.39353 1 0.281498
0.578973 1 0.264012
0.769833 1 0.2439
0.898238 1 0.240482
1 1 0.240101
0 0 0.338079
0.0775006 0 0.337987
0.155688 0 0.338064
0.236622 0 0.337224
0.330938 0 0.332448
0.507134 0 0.30573
0.689677 0 0.277302
0.809888 0 0.265675
0.918624 0 0.257404
0 0.0769207 0.337133
0.0762341 0.0765087 0.336721
0.154162 0.0763256 0.336538
0.235004 0.0753948 0.335607
0.329427 0.0707256 0.330938
0.505898 0.0442817 0.304494
0.68893 0.0163424 0.276555
0.809766 0.00534066 0.265553
0.919432 0 0.258198
0 0.154452 0.336095
0.0753948 0.154238 0.335882
0.153674 0.154406 0.336049
0.235065 0.154009 0.335668
0.330205 0.150072 0.331716
0.507637 0.12459 0.306233
0.691844 0.0978256 0.279484
0.814054 0.0882124 0.269856
0.925338 0.0824598 0.264118
0 0.234241 0.334112
0.0742046 0.234836 0.334707
0.153506 0.236011 0.335882
0.235966 0.236698 0.336568
0.332769 0.234424 0.334295
0.511955 0.210681 0.310552
0.698604 0.186358 0.286229
0.826719 0.18265 0.282521
0.95314 0.19205 0.29192
0 0.321569 0.325704
0.0673533 0.32372 0.327855
0.148547 0.326787 0.330907
0.233936 0.330404 0.334539
0.340414 0.337804 0.341924
0.53782 0.332296 0.336416
0.74786 0.331365 0.335485
0.894286 0.345953 0.350088
1 0.366812 0.370932
0 0.44538 0.255131
0.00987259 0.460609 0.270359
0.112779 0.485405 0.295155
0.220264 0.511116 0.320867
0.341985 0.533761 0.343511
0.547997 0.536843 0.346593
0.760204 0.538079 0.347829
0.910613 0.556664 0.366415
1 0.579446 0.389197
0 0.640467 0.229053
0 0.66862 0.257221
0.104372 0.698146 0.286732
0.215106 0.727123 0.315709
0.33994 0.75285 0.341451
0.547509 0.757504 0.346105
0.756481 0.755505 0.344106
0.89688 0.76408 0.352682
1 0.770657 0.359243
0 0.833951 0.285557
0.0554971 0.864393 0.315984
0.163394 0.894179 0.345769
0.269123 0.918135 0.369726
0.38117 0.93109 0.382681
0.570886 0.917891 0.369482
0.764874 0.900908 0.352514
0.895354 0.899565 0.351156
1 0.900359 0.351949
0.0130159 1 0.352605
0.107729 1 0.368215
0.198093 1 0.380453
0.289876 1 0.390478
0.39411 1 0.395636
0.579065 1 0.377661
0.770031 1 0.357656
0.898375 1 0.354177
1 1 0.353658
0 0 0.520058
0.0694591 0 0.520012
0.147616 0 0.520043
0.228458 0 0.519127
0.322789 0 0.514366
0.498985 0 0.487648
0.681559 0 0.459251
0.801755 0 0.447608
0.910597 0 0.439429
0 0.0687724 0.519036
0.0680858 0.0683757 0.518639
0.146029 0.0681773 0.518456
0.226795 0.0671855 0.517449
0.321355 0.0626688 0.512932
0.497902 0.036286 0.486564
0.68101 0.00842298 0.458701
0.801938 0 0.447791
0.911727 0 0.440558
0 0.146349 0.518059
0.0673381 0.146181 0.517891
0.145708 0.146426 0.518135
0.227024 0.145983 0.517693
0.322454 0.142321 0.514015
0.500008 0.116945 0.488655
0.684245 0.0902113 0.461921
0.80676 0.0809186 0.452613
0.918288 0.0754101 0.44712
0 0.226383 0.51632
0.0664988 0.227115 0.517052
0.145953 0.228458 0.51838
0.228565 0.229297 0.519219
0.325551 0.227192 0.517113
0.504967 0.203708 0.493629
0.692042 0.179797 0.469734
0.824033 0.17995 0.469886
0.953552 0.192447 0.482368
0 0.31426 0.508446
0.0602579 0.316625 0.510811
0.141817 0.320058 0.514244
0.228336 0.324819 0.519005
0.338201 0.335592 0.529778
0.539162 0.333639 0.527825
0.748409 0.331899 0.526085
0.895842 0.347509 0.541695
1 0.368841 0.563027
0 0.441627 0.441444
0.00892653 0.459663 0.45948
0.11371 0.48632 0.486137
0.221012 0.511864 0.511681
0.343938 0.535698 0.5355
0.550072 0.538918 0.53872
0.762295 0.540169 0.539986
0.912886 0.558938 0.55874
1 0.581903 0.58172
0 0.641566 0.420218
0 0.670619 0.449271
0.106249 0.700023 0.478676
0.217227 0.729229 0.507881
0.342458 0.755383 0.534035
0.54902 0.759014 0.537667
0.756329 0.755367 0.53402
0.894316 0.761517 0.540169
1 0.766812 0.545464
0 0.836103 0.47776
0.0581216 0.867018 0.508675
0.164126 0.894911 0.536553
0.267582 0.916594 0.558236
0.378134 0.928054 0.569696
0.566812 0.913817 0.555459
0.760357 0.896391 0.538048
0.89041 0.894621 0.536263
1 0.895079 0.536721
0.0106203 1 0.540261
0.103944 1 0.554498
0.193835 1 0.566262
0.285222 1 0.575875
0.38912 1 0.580697
0.573816 1 0.562478
0.76466 1 0.542336
0.892973 1 0.538827
1 1 0.538308
0 0 0.729351
0.0592813 0 0.72929
0.137377 0 0.729259
0.218173 0 0.728283
0.31252 0 0.723552
0.488731 0 0.696834
0.671321 0 0.668467
0.791577 0 0.656886
0.900481 0 0.648753
0 0.0585031 0.728222
0.0578164 0.0581064 0.727825
0.135775 0.0579232 0.727657
0.21651 0.0569009 0.726635
0.311192 0.052491 0.72221
0.487816 0.0261845 0.695918
0.670939 0 0.668086
0.79205 0 0.657359
0.901961 0 0.650248
0 0.136156 0.727306
0.0571908 0.136034 0.727199
0.135607 0.136324 0.727489
0.21706 0.136004 0.727169
0.312612 0.132479 0.723644
0.490318 0.107271 0.698436
0.674662 0.0806439 0.671809
0.797406 0.0715496 0.662715
0.909178 0.0663005 0.657465
0 0.216449 0.725826
0.0566873 0.217304 0.726696
0.136202 0.218692 0.728084
0.21912 0.219852 0.729244
0.31632 0.21796 0.727337
0.496101 0.194827 0.704204
0.68423 0.172 0.681376
0.819654 0.17557 0.684962
0.952743 0.191653 0.70103
0 0.304845 0.718486
0.0510872 0.307454 0.721096
0.133028 0.311269 0.72491
0.222339 0.318822 0.732464
0.335012 0.332403 0.746044
0.538109 0.332586 0.746212
0.747036 0.330526 0.744167
0.895644 0.347311 0.760952
1 0.36878 0.782422
0 0.436957 0.656214
0.00749218 0.458228 0.677501
0.112627 0.485252 0.704509
0.219959 0.510811 0.730068
0.343801 0.535561 0.754818
0.549599 0.538445 0.757702
0.762295 0.540169 0.759441
0.913283 0.559335 0.778592
1 0.58146 0.800717
0 0.641093 0.6392
0 0.670527 0.668635
0.106233 0.700008 0.698116
0.217243 0.729259 0.727352
0.342977 0.755901 0.754009
0.547402 0.757397 0.755505
0.752773 0.751812 0.74992
0.889204 0.756405 0.754513
1 0.760479 0.758572
0 0.836301 0.697414
0.0579232 0.866819 0.727932
0.162463 0.893233 0.754345
0.263081 0.912093 0.77319
0.372381 0.922316 0.783413
0.560449 0.907454 0.768566
0.753597 0.889632 0.750729
0.883314 0.88751 0.748623
1 0.887556 0.748669
0.00587472 1 0.754971
0.0978103 1 0.767819
0.187243 1 0.779126
0.278248 1 0.788373
0.381842 1 0.792874
0.56643 1 0.774533
0.757137 1 0.754284
0.885451 1 0.750759
1 1 0.750286
0 0 0.861372
0.0551003 0 0.861234
0.13315 0 0.861158
0.21384 0 0.860075
0.308278 0 0.855421
0.484489 0 0.828717
0.666957 0 0.800229
0.787411 0 0.788846
0.896391 0 0.780804
0 0.0542458 0.860105
0.0535744 0.0538491 0.859709
0.131548 0.0537118 0.859556
0.212329 0.0527199 0.858564
0.307057 0.0483558 0.8542
0.483742 0.0221256 0.827985
0.666896 0 0.800168
0.788235 0 0.78967
0.898283 0 0.782696
0 0.131991 0.859266
0.0530861 0.131945 0.85922
0.131548 0.132265 0.859556
0.213123 0.132082 0.859373
0.308812 0.128679 0.85597
0.486686 0.103639 0.83093
0.671229 0.0772106 0.804486
0.794186 0.0683299 0.795605
0.906294 0.0634318 0.790707
0 0.212589 0.858091
0.0529488 0.213565 0.859083
0.13254 0.215045 0.860548
0.215732 0.216464 0.861967
0.313161 0.214817 0.860319
0.493431 0.192157 0.837659
0.684123 0.171878 0.81738
0.82237 0.178286 0.823789
0.957992 0.196887 0.84239
0 0.301518 0.851286
0.0480049 0.304372 0.854124
0.130587 0.308827 0.858579
0.223651 0.320119 0.869886
0.339498 0.336889 0.886641
0.542977 0.337438 0.887205
0.751949 0.335439 0.885206
0.901518 0.353185 0.902953
1 0.374578 0.924331
0 0.438727 0.79411
0.0125124 0.463264 0.818647
0.117311 0.489921 0.845319
0.225467 0.516304 0.871702
0.349722 0.541482 0.896864
0.555581 0.544427 0.899825
0.768322 0.546197 0.901579
0.919814 0.565866 0.921248
1 0.585809 0.941207
0 0.646937 0.78117
0.00415045 0.676051 0.810285
0.11223 0.706004 0.840238
0.223438 0.735454 0.869673
0.349004 0.761929 0.896162
0.551766 0.761761 0.895994
0.754314 0.753353 0.887587
0.889509 0.75671 0.890929
1 0.760159 0.894392
0 0.842756 0.839979
0.0633249 0.872221 0.869459
0.166064 0.896849 0.894072
0.264378 0.91339 0.910613
0.372152 0.922072 0.919295
0.559884 0.906889 0.904128
0.752651 0.888685 0.885924
0.882124 0.88632 0.883558
0.999008 0.886183 0.883421
0.00663767 1 0.891875
0.0977188 1 0.903853
0.186618 1 0.914626
0.277195 1 0.923445
0.380362 1 0.92752
0.564996 1 0.909224
0.755642 1 0.888914
0.883726 1 0.885161
1 1 0.884993
0 0 0.975265
0.0523232 0 0.975082
0.13022 0 0.974853
0.211002 0 0.973861
0.30544 0 0.969223
0.481666 0 0.942535
0.664179 0 0.914076
0.78468 0 0.902739
0.893736 0 0.894774
0 0.0514076 0.973892
0.0507362 0.0510109 0.973495
0.128588 0.0507362 0.97322
0.209567 0.049958 0.972442
0.304356 0.045655 0.968139
0.481132 0.0195163 0.942
0.664378 0 0.914275
0.78584 0 0.903899
0.896071 0 0.897108
0 0.129229 0.973144
0.0504311 0.129274 0.97319
0.128878 0.12961 0.97351
0.210681 0.129625 0.973541
0.306477 0.126345 0.97026
0.484337 0.101274 0.94519
0.66923 0.0752117 0.919127
0.792432 0.0665904 0.910491
0.905104 0.0622263 0.906142
0 0.210193 0.97232
0.0506905 0.211322 0.973449
0.130449 0.212955 0.975082
0.213809 0.214542 0.976669
0.311498 0.213138 0.975265
0.492256 0.190982 0.953124
0.686778 0.174533 0.936675
0.828138 0.18407 0.946197
0.964279 0.203174 0.965316
0 0.299733 0.966125
0.04654 0.302907 0.969299
0.130373 0.308614 0.975021
0.226764 0.323247 0.989639
0.346166 0.343542 1
0.54902 0.343481 1
0.758831 0.342321 1
0.908858 0.360525 1
1 0.38172 1
0 0.443183 0.91519
0.0189517 0.469688 0.941711
0.123369 0.495995 0.968002
0.232715 0.523568 0.995575
0.356924 0.548684 1
0.562997 0.551843 1
0.775921 0.553796 1
0.92755 0.573602 1
1 0.591562 1
0 0.6542 0.905058
0.0115358 0.683452 0.93431
0.119646 0.71342 0.964279
0.231281 0.743297 0.994156
0.355779 0.768704 1
0.556863 0.766873 1
0.757046 0.756085 1
0.890852 0.758053 1
1 0.761013 1
0 0.850446 0.964294
0.069337 0.878233 0.992096
0.169772 0.900542 1
0.266606 0.915618 1
0.37348 0.9234 1
0.560662 0.907668 1
0.753017 0.889052 1
0.882017 0.886229 1
0.998993 0.886168 1
0.00799573 1 1
0.0987564 1 1
0.187259 1 1
0.277378 1 1
0.380438 1 1
0.56492 1 1
0.75555 1 1
0.88368 1 1
1 1 1
