media_metadata/bennett_8/lut2.cube
TITLE "Generated by Resolve"
LUT_3D_SIZE 33
0 0 0
0.0195468 0 0
0.0395056 0 0
0.0594339 0 0
0.0791485 6.10361e-05 6.10361e-05
0.0987564 0.00015259 0.00015259
0.118273 0.000228885 0.000228885
0.137819 0.000259403 0.000259403
0.157504 0.000289921 0.000289921
0.177462 0.000381476 0.000381476
0.197513 0.000244144 0.000244144
0.217823 1.5259e-05 1.5259e-05
0.238621 0 0
0.259754 0 0
0.281437 0 0
0.30428 0 0
0.333227 0 0
0.372061 0 0
0.416159 0 0
0.461662 0 0
0.509483 0 0
0.556878 0 0
0.603738 0 0
0.650309 0 0
0.691875 0 0
0.725246 0 0
0.755306 0 0
0.784115 0 0
0.8121 0 0
0.839399 0 0
0.866407 0 0
0.893523 0 0
0.920714 0 0
0 0.0197147 0
0.0197299 0.0197604 0
0.0398108 0.0198978 4.57771e-05
0.0595102 0.019913 6.10361e-05
0.0791638 0.019913 6.10361e-05
0.0986954 0.0199588 0.000106813
0.118181 0.0199893 0.000137331
0.13785 0.0201419 0.000289921
0.157473 0.0200961 0.000244144
0.177234 0.0200046 0.00015259
0.197238 0.0198367 0
0.217533 0.0195773 0
0.238315 0.0191958 0
0.259556 0.0188296 0
0.281163 0.0181888 0
0.303883 0.0172274 0
0.332815 0.0146029 0
0.371633 0.00929274 0
0.415763 0.00259403 0
0.461357 0 0
0.50901 0 0
0.556405 0 0
0.603265 0 0
0.649836 0 0
0.691478 0 0
0.724834 0 0
0.754849 0 0
0.783673 0 0
0.811673 0 0
0.838987 0 0
0.866133 0 0
0.893187 0 0
0.920378 0 0
0 0.0397955 0
0.0197757 0.0397955 0
0.0396429 0.0397345 0
0.0593118 0.0397192 0
0.0789197 0.0396887 0
0.0984054 0.0396582 0
0.117998 0.0398108 0
0.137484 0.0397803 0
0.157076 0.039704 0
0.176822 0.0395666 0
0.19678 0.0393683 0
0.21706 0.0390936 0
0.237964 0.038819 0
0.259037 0.0383001 0
0.280629 0.037644 0
0.303334 0.0366827 0
0.33225 0.0340276 0
0.371099 0.0287633 0
0.415305 0.0221408 0
0.460792 0.0150149 0
0.508446 0.00730907 0
0.55584 0 0
0.602701 0 0
0.649439 0 0
0.69102 0 0
0.72433 0 0
0.75436 0 0
0.783185 0 0
0.811292 0 0
0.838727 0 0
0.865782 0 0
0.892821 0 0
0.920058 0 0
0 0.059556 0
0.0196689 0.0594797 0
0.0394903 0.0593576 0
0.0591287 0.0592966 0
0.0786908 0.0592355 0
0.0983139 0.0593423 0
0.117723 0.0593118 0
0.137179 0.0592355 0
0.156741 0.059144 0
0.176471 0.0590066 0
0.196567 0.0589303 0
0.216831 0.0586404 0
0.237552 0.0581979 0
0.258625 0.0576791 0
0.280217 0.0570077 0
0.302922 0.0560464 0
0.331991 0.0535592 0
0.370794 0.048249 0
0.414893 0.0415045 0
0.460395 0.0343938 0
0.508064 0.0267033 0
0.555505 0.0191196 0
0.602502 0.01178 0
0.649104 0.0043946 0
0.6907 0 0
0.724041 0 0
0.754101 0 0
0.783032 0 0
0.811185 0 0
0.83856 0 0
0.865675 0 0
0.89276 0 0
0.920043 0 0
0 0.079118 0
0.0194705 0.0790112 0
0.0392615 0.0788739 0
0.0589609 0.0788739 0
0.0785534 0.0788434 0
0.0979934 0.0787671 0
0.117388 0.0787213 0
0.136828 0.078645 0
0.156374 0.0785229 0
0.176226 0.0785077 0
0.196185 0.078294 0
0.216434 0.0779889 0
0.237171 0.0775616 0
0.258244 0.0770275 0
0.279835 0.0763714 0
0.302693 0.0755627 0
0.331624 0.0729229 0
0.370443 0.067628 0
0.414557 0.060914 0
0.460075 0.0538186 0
0.507774 0.0461585 0
0.555352 0.0387121 0
0.602258 0.031281 0
0.64889 0.0239261 0
0.690517 0.0179294 0
0.723873 0.0141909 0
0.754131 0.0115053 0
0.783047 0.00900282 0
0.81117 0.00674449 0
0.83859 0.00466926 0
0.865736 0.00268559 0
0.892943 0.000808728 0
0.920394 0 0
0 0.0985428 0
0.0192416 0.0984207 0
0.0391241 0.0983444 0
0.0587625 0.0982986 0
0.078294 0.0981918 0
0.0977188 0.0981155 0
0.117098 0.0980392 0
0.136522 0.0979629 0
0.156222 0.0980087 0
0.175937 0.0978408 0
0.195895 0.0976272 0
0.216144 0.097322 0
0.236881 0.0968948 0
0.258091 0.0965133 0
0.279713 0.0958877 0
0.302449 0.0949416 0
0.331395 0.0923171 0
0.37023 0.0870375 0
0.414374 0.080354 0
0.460075 0.0734417 0
0.507805 0.0658122 0
0.555261 0.0582437 0
0.602197 0.0508431 0
0.648859 0.043534 0
0.690562 0.0375982 0
0.724117 0.0340581 0
0.754253 0.0312505 0
0.783215 0.0287938 0
0.811383 0.0265965 0
0.83888 0.0245975 0
0.866148 0.0227207 0
0.893462 0.0209506 0
0.920851 0.0190433 0
0 0.117952 0
0.0191653 0.117906 0
0.0389258 0.117739 0
0.0585031 0.117617 0
0.0780346 0.117494 0
0.0974594 0.117418 0
0.116915 0.117433 0
0.136431 0.117418 0
0.155962 0.117311 0
0.175692 0.117159 0
0.195651 0.11696 0
0.215915 0.11667 0
0.236805 0.116381 0
0.257939 0.115908 0
0.279561 0.115297 0
0.302312 0.114382 0
0.331304 0.111788 0
0.370169 0.106538 0
0.414481 0.100023 0
0.460075 0.0930037 0
0.507836 0.0854047 0
0.555352 0.0778973 0
0.602335 0.0705425 0
0.649042 0.0632792 0
0.690944 0.0575418 0
0.724422 0.0539254 0
0.754635 0.051194 0
0.783642 0.0487984 0
0.811856 0.0466316 0
0.839582 0.0448615 0
0.866896 0.0430304 0
0.894179 0.0412299 0
0.921645 0.0393988 0
0 0.137377 0
0.0188602 0.137224 0
0.0386358 0.137057 0
0.0581979 0.136934 0
0.0777295 0.136828 0
0.0972305 0.136828 0
0.116701 0.136843 0
0.136156 0.136782 0
0.155718 0.13669 0
0.175463 0.136553 0
0.195438 0.136355 0
0.215885 0.136263 0
0.236683 0.135882 0
0.257816 0.135409 0
0.279454 0.134813 0
0.302235 0.133928 0
0.33138 0.131487 0
0.370336 0.126345 0
0.414557 0.119722 0
0.460182 0.112749 0
0.507988 0.10518 0
0.55555 0.097734 0
0.602762 0.0906081 0
0.649561 0.0834058 0
0.691341 0.0775769 0
0.724865 0.073991 0
0.755154 0.0713359 0
0.784268 0.0690318 0
0.812741 0.0671397 0
0.84036 0.0652628 0
0.867735 0.063508 0
0.895109 0.061799 0
0.922698 0.0600748 0
0 0.156741 0
0.0184787 0.156588 0
0.0382391 0.15642 0
0.0578622 0.156344 0
0.0775311 0.156374 0
0.0969863 0.156313 0
0.116381 0.156283 0
0.135851 0.156222 0
0.155444 0.156161 0
0.17528 0.15613 0
0.195392 0.156069 0
0.215702 0.155825 0
0.23653 0.155474 0
0.25771 0.155062 0
0.279408 0.154513 0
0.302342 0.15378 0
0.331456 0.151324 0
0.370428 0.146181 0
0.414694 0.13962 0
0.460395 0.132708 0
0.508263 0.125216 0
0.556023 0.117952 0
0.603159 0.11075 0
0.650019 0.103624 0
0.691905 0.0978866 0
0.725505 0.0943923 0
0.755856 0.0917983 0
0.785214 0.0897383 0
0.813626 0.0877699 0
0.841367 0.0860151 0
0.868818 0.0843519 0
0.896284 0.0827192 0
0.924147 0.0812695 0
0 0.176181 0
0.0179904 0.176043 0
0.0377966 0.175921 0
0.0575418 0.175967 0
0.0771038 0.175891 0
0.0965896 0.17586 0
0.11603 0.17586 0
0.135515 0.175845 0
0.1552 0.17586 0
0.175097 0.175891 0
0.195163 0.175784 0
0.215534 0.175601 0
0.236393 0.175296 0
0.257618 0.174914 0
0.27953 0.174578 0
0.302434 0.173816 0
0.331563 0.171374 0
0.370581 0.166278 0
0.414908 0.159777 0
0.460777 0.153033 0
0.508797 0.145693 0
0.556512 0.138384 0
0.603693 0.131228 0
0.650614 0.124163 0
0.692592 0.118502 0
0.726436 0.115267 0
0.756924 0.11281 0
0.786191 0.110658 0
0.814679 0.108782 0
0.842542 0.107134 0
0.87013 0.105608 0
0.897902 0.10428 0
0.925673 0.102754 0
0 0.195758 0
0.0175326 0.195804 0
0.0373693 0.195682 0
0.0569924 0.195636 0
0.076585 0.19559 0
0.0961013 0.19559 0
0.115587 0.195636 0
0.135286 0.195819 0
0.154955 0.195819 0
0.174807 0.195804 0
0.194903 0.195727 0
0.215335 0.195605 0
0.236316 0.195422 0
0.257725 0.195224 0
0.279515 0.194781 0
0.30248 0.194064 0
0.331685 0.191699 0
0.370794 0.186694 0
0.415305 0.180362 0
0.461204 0.173663 0
0.509239 0.166323 0
0.557031 0.159121 0
0.604334 0.152071 0
0.651362 0.145113 0
0.693538 0.139666 0
0.727382 0.136416 0
0.757977 0.134051 0
0.787381 0.132052 0
0.815976 0.130282 0
0.843915 0.128725 0
0.871809 0.127474 0
0.89955 0.126131 0
0.927504 0.124773 0
0 0.215686 0
0.0168002 0.215595 0
0.0366522 0.215518 0
0.0563363 0.215503 0
0.0759899 0.215518 0
0.0955367 0.215564 0
0.115221 0.215793 0
0.134813 0.215869 0
0.154543 0.215946 0
0.174472 0.215991 0
0.194629 0.215991 0
0.215152 0.215946 0
0.236271 0.2159 0
0.257633 0.215671 0
0.27953 0.215335 0
0.302556 0.214679 0
0.331838 0.21239 0
0.371191 0.20763 0
0.415717 0.201312 0
0.461662 0.194644 0
0.509773 0.187411 0
0.557656 0.18027 0
0.605127 0.173404 0
0.652399 0.166674 0
0.694575 0.161227 0
0.728481 0.158038 0
0.759152 0.155764 0
0.788678 0.153887 0
0.817578 0.152407 0
0.845731 0.151064 0
0.873579 0.149783 0
0.901503 0.148623 0
0.929778 0.147585 0
0 0.235737 0
0.0158083 0.235706 0
0.0357061 0.23566 0
0.0554208 0.235691 0
0.075288 0.235904 0
0.0949111 0.236027 0
0.114504 0.236179 0
0.134157 0.236301 0
0.153933 0.236439 0
0.173922 0.236545 0
0.194339 0.236805 0
0.214908 0.23682 0
0.235981 0.236713 0
0.257404 0.236545 0
0.279393 0.236286 0
0.302571 0.235798 0
0.332097 0.233738 0
0.371359 0.228901 0
0.415961 0.22266 0
0.462013 0.216114 0
0.510277 0.209003 0
0.558358 0.20206 0
0.605951 0.195315 0
0.653208 0.188602 0
0.695537 0.183291 0
0.72961 0.18027 0
0.760433 0.178149 0
0.790219 0.176532 0
0.819303 0.175219 0
0.847761 0.174197 0
0.876036 0.173327 0
0.904341 0.172549 0
0.933272 0.172183 0
0 0.256046 0
0.014725 0.256077 0
0.034699 0.256107 0
0.0546273 0.256336 0
0.0743877 0.256474 0
0.0940719 0.256641 0
0.113741 0.256855 0
0.133486 0.257099 0
0.153353 0.257298 0
0.173571 0.257649 0
0.193896 0.257801 0
0.214557 0.257908 0
0.235737 0.257923 0
0.257267 0.257862 0
0.279347 0.257694 0
0.302739 0.25742 0
0.33225 0.255344 0
0.371664 0.250645 0
0.416373 0.244526 0
0.462516 0.238056 0
0.51107 0.23125 0
0.559228 0.224399 0
0.606897 0.217716 0
0.654292 0.211124 0
0.696773 0.205982 0
0.731197 0.203311 0
0.762554 0.201724 0
0.79263 0.200381 0
0.822065 0.199435 0
0.851453 0.199329 0
0.881514 0.200259 0
0.91252 0.202182 0
0.943984 0.204334 0
0 0.276722 0
0.0134432 0.276799 0
0.0336461 0.277058 0
0.0535134 0.277241 0
0.0733654 0.277455 0
0.0931106 0.277684 0
0.11284 0.277974 0
0.132799 0.278416 0
0.152804 0.278767 0
0.172976 0.279057 0
0.193393 0.279301 0
0.21413 0.2795 0
0.235416 0.279606 0
0.257267 0.27985 0
0.279454 0.279805 0
0.302785 0.279469 0
0.332387 0.277501 0
0.371923 0.272923 0
0.416815 0.266987 0
0.463294 0.260838 0
0.511803 0.253986 0
0.560159 0.247333 0
0.608148 0.240986 0
0.65597 0.234821 0
0.698894 0.230121 0
0.733959 0.228077 0
0.766415 0.227588 0
0.798611 0.228382 0
0.83064 0.23003 0
0.862165 0.232044 0
0.893935 0.234699 0
0.926513 0.238193 0
0.959991 0.242344 0
0 0.29807 0
0.0117647 0.298314 0
0.0318608 0.298466 0
0.0518044 0.298711 0
0.0717327 0.299016 0
0.0915999 0.299367 0
0.111574 0.299886 0
0.131518 0.300313 0
0.151568 0.300725 0
0.171862 0.301122 0
0.192416 0.301503 0
0.213275 0.301823 0
0.234836 0.302205 0
0.256596 0.302373 0
0.278935 0.30248 0
0.302449 0.302312 0
0.332189 0.300481 0
0.371878 0.296056 0
0.417197 0.290532 0
0.463874 0.284596 0
0.512795 0.278172 0
0.561547 0.271901 0
0.610254 0.26627 0
0.659892 0.261921 0
0.705165 0.259571 0
0.74258 0.259892 0
0.776898 0.261265 0
0.810559 0.263508 0
0.844404 0.266972 0
0.878584 0.271656 0
0.91252 0.276463 0
0.946426 0.281285 0
0.980392 0.285939 0
0 0.321324 0
0.00596628 0.321599 0
0.0261845 0.321874 0
0.0462043 0.32221 0
0.0662242 0.322591 0
0.0863508 0.323217 0
0.106325 0.323735 0
0.12636 0.324254 0
0.146532 0.324758 0
0.166903 0.325261 0
0.187701 0.325887 0
0.208774 0.326421 0
0.23032 0.326787 0
0.252216 0.327092 0
0.274739 0.327367 0
0.298528 0.327489 0
0.328862 0.326253 0
0.368963 0.32224 0
0.414542 0.316991 0
0.462226 0.312047 0
0.513024 0.3075 0
0.564324 0.303777 0
0.615686 0.300801 0
0.666728 0.297856 0
0.713466 0.296971 0
0.75285 0.299245 0
0.789609 0.303075 0
0.825452 0.307485 0
0.860685 0.312352 0
0.894743 0.316899 0
0.928328 0.32137 0
0.961791 0.32575 0
0.995407 0.330053 0
0 0.347524 0
0 0.34786 0
0.0140993 0.348241 0
0.0343481 0.348806 0
0.0545815 0.349416 0
0.0746471 0.349966 0
0.0946975 0.350576 0
0.114885 0.351232 0
0.13521 0.351904 0
0.155856 0.352682 0
0.17673 0.353384 0
0.197971 0.35407 0
0.219852 0.354788 0
0.242176 0.355505 0
0.265064 0.356161 0
0.289647 0.357061 0
0.321141 0.356985 0
0.363424 0.355154 0
0.411597 0.352483 0
0.461326 0.349615 0
0.513649 0.346563 0
0.566903 0.344808 0
0.620172 0.343725 0
0.673625 0.343206 0
0.722148 0.344106 0
0.762295 0.347143 0
0.799405 0.351308 0
0.834745 0.355245 0
0.8692 0.359335 0
0.902998 0.363622 0
0.93669 0.368185 0
0.970687 0.373098 0
1 0.378561 0.004654
0 0.37612 0
0 0.376577 0
0 0.377127 0
0.0177768 0.377813 0
0.0380713 0.37847 0
0.0583047 0.379187 0
0.0784924 0.37995 0
0.0988174 0.380758 0
0.119615 0.381888 0
0.14052 0.382925 0
0.161746 0.383978 0
0.183383 0.385061 0
0.206058 0.386557 0
0.230167 0.389075 0
0.255634 0.392294 0
0.28249 0.395499 0
0.31577 0.397192 0
0.359503 0.396811 0
0.409445 0.395911 0
0.461891 0.395758 0
0.516579 0.395087 0
0.570901 0.394385 0
0.624552 0.393698 0
0.677775 0.392935 0
0.725841 0.393378 0
0.765988 0.396429 0
0.802548 0.400046 0
0.838148 0.404227 0
0.873228 0.408927 0
0.907835 0.414038 0
0.942245 0.419318 0
0.977005 0.424994 0.00550851
1 0.430243 0.0107576
0 0.406912 0
0 0.407706 0
0 0.408347 0
0 0.409064 0
0.0175326 0.409903 0
0.0380713 0.410925 0
0.0587472 0.412146 0
0.0796063 0.413489 0
0.100679 0.414908 0
0.122667 0.417014 0
0.145846 0.420035 0
0.170062 0.423697 0
0.195163 0.427634 0
0.220905 0.431769 0
0.247745 0.436362 0
0.276631 0.441581 0
0.312367 0.445747 0
0.358129 0.447395 0
0.40943 0.447852 0
0.461769 0.447593 0
0.515999 0.446464 0
0.569879 0.445319 0
0.623209 0.444312 0
0.676402 0.443503 0
0.725277 0.44477 0
0.765759 0.448142 0
0.803113 0.452567 0
0.839307 0.457328 0
0.874678 0.462333 0
0.909834 0.467994 0
0.944274 0.47332 0.0018616
0.978714 0.47866 0.00720226
1 0.483955 0.0124971
0 0.440208 0
0 0.441062 0
0 0.442054 0
0 0.443183 0
0 0.444404 0
0.0148775 0.446113 0
0.0370642 0.448859 0
0.0600595 0.452338 0
0.083711 0.456321 0
0.107683 0.460426 0
0.132357 0.464927 0
0.158572 0.470588 0
0.185779 0.476631 0
0.213764 0.483009 0
0.242283 0.489296 0
0.271839 0.495171 0
0.307652 0.499413 0
0.353201 0.500847 0
0.403754 0.500572 0
0.455756 0.499962 0
0.510124 0.49897 0
0.564538 0.49836 0
0.618967 0.498451 0
0.673045 0.498543 0
0.721996 0.49987 0
0.762676 0.503456 0
0.800107 0.507942 0
0.836362 0.512779 0
0.872206 0.518242 0
0.906996 0.523537 0
0.941466 0.528878 0
0.975906 0.534234 0.0043946
1 0.539544 0.00970474
0 0.474983 0
0 0.476249 0
0 0.47808 0
0 0.480934 0
0 0.484947 0
0 0.489036 0
0.0214237 0.493339 0
0.0458686 0.498283 0
0.0713512 0.504097 0
0.0978256 0.510704 0
0.125063 0.517769 0
0.152239 0.524392 0
0.179767 0.530739 0
0.207462 0.536843 0
0.235538 0.542687 0
0.264866 0.548348 0
0.300603 0.552499 0
0.346227 0.554009 0
0.397436 0.554391 0
0.450263 0.554604 0
0.505302 0.554284 0
0.560357 0.554314 0
0.614786 0.554406 0
0.668803 0.554437 0
0.717815 0.555825 0
0.758556 0.559472 0
0.796033 0.563989 0
0.832731 0.569284 0
0.868193 0.57438 0
0.902968 0.579644 0
0.937453 0.585016 0
0.971984 0.590448 0.000488289
1 0.596368 0.00639353
0 0.513436 0
0 0.517296 0
0 0.52134 0
0 0.526101 0
0 0.53135 0
0 0.53753 0
0.0127871 0.544289 0
0.0391852 0.551171 0
0.0656596 0.557992 0
0.0924697 0.56492 0
0.11899 0.571267 0
0.145724 0.577447 0
0.172946 0.583505 0
0.200656 0.589609 0
0.229587 0.596307 0
0.25951 0.602548 0
0.295796 0.607263 0
0.341985 0.609339 0
0.393469 0.609995 0
0.44654 0.610452 0
0.50193 0.610483 0
0.556771 0.6103 0
0.611078 0.610285 0
0.665125 0.61033 0
0.714168 0.611749 0
0.755169 0.615656 0
0.792844 0.620386 0
0.829145 0.625284 0
0.864744 0.630488 0
0.899763 0.636027 0
0.934615 0.641733 0
0.969802 0.647852 0
1 0.653483 0.00393683
0 0.557351 0
0 0.563195 0
0 0.569619 0
0 0.576425 0
0 0.583261 0
0 0.590021 0
0.0106813 0.596613 0
0.0370336 0.603464 0
0.0630503 0.609812 0
0.0892805 0.616175 0
0.115969 0.62269 0
0.143267 0.629435 0
0.171313 0.636316 0
0.200168 0.643565 0
0.229129 0.650294 0
0.259251 0.656733 0
0.295613 0.661524 0
0.341863 0.663661 0
0.393545 0.664515 0
0.446799 0.665171 0
0.50193 0.664927 0
0.556786 0.664775 0
0.611124 0.664759 0
0.665187 0.664836 0
0.714504 0.666545 0
0.755657 0.670588 0
0.793439 0.675425 0
0.830091 0.680674 0
0.865919 0.686122 0
0.900801 0.691508 0
0.935332 0.69691 0
0.968902 0.701396 0
1 0.705577 0.00158694
0 0.606531 0
0 0.613382 0
0 0.619989 0
0 0.626474 0
0 0.632868 0
0 0.639246 0
0.0132143 0.646174 0
0.0395056 0.652949 0
0.0662089 0.659983 0
0.0932631 0.667155 0
0.120592 0.674311 0
0.148226 0.681407 0
0.176806 0.688823 0
0.205325 0.695735 0
0.234363 0.702525 0
0.26453 0.709026 0
0.300923 0.713832 0
0.347631 0.716442 0
0.399191 0.717174 0
0.452171 0.717525 0
0.507317 0.717327 0
0.56228 0.717266 0
0.616938 0.717586 0
0.671672 0.718334 0
0.721111 0.720134 0
0.762158 0.724102 0
0.799603 0.728588 0
0.835309 0.732891 0
0.869963 0.737163 0
0.903792 0.741497 0
0.936919 0.745495 0
0.969467 0.748959 0
1 0.751659 0.000656138
0 0.65449 0
0 0.660807 0
0 0.667124 0
0 0.673671 0
0 0.680827 0
0 0.68809 0
0.0225528 0.695399 0
0.0493629 0.702693 0
0.0763104 0.709987 0
0.103456 0.71725 0
0.131258 0.724895 0
0.158999 0.732067 0
0.187198 0.739101 0
0.215732 0.746044 0
0.244785 0.75285 0
0.274968 0.759365 0
0.311803 0.76463 0
0.358129 0.766842 0
0.409827 0.767712 0
0.463066 0.768338 0
0.518563 0.768475 0
0.573892 0.76878 0
0.628809 0.769345 0
0.682612 0.769177 0
0.730907 0.769848 0
0.770581 0.772412 0
0.806867 0.775753 0
0.84181 0.779278 0
0.875334 0.782437 0
0.907225 0.784833 0
0.93843 0.786908 0
0.969497 0.788891 0
1 0.790661 0
0 0.70042 0
0 0.707332 0
0 0.714458 0
0 0.721996 0
0 0.729427 0
0.00944533 0.736751 0
0.0362707 0.744121 0
0.0631571 0.751492 0
0.0901503 0.758846 0
0.117723 0.766522 0
0.14519 0.773831 0
0.172915 0.781003 0
0.201129 0.788037 0
0.229679 0.794995 0
0.258808 0.801877 0
0.289616 0.809033 0
0.326345 0.814176 0
0.373007 0.816724 0
0.424918 0.817807 0
0.477974 0.818235 0
0.533104 0.818006 0
0.58706 0.816953 0
0.640253 0.815793 0
0.693034 0.814603 0
0.740368 0.814313 0
0.778759 0.815595 0
0.813458 0.817365 0
0.846403 0.818891 0
0.878447 0.820554 0
0.909575 0.822187 0
0.940078 0.82356 0
0.970367 0.824765 0
1 0.82591 1.5259e-05
0 0.747799 0
0 0.755047 0
0 0.762722 0
0 0.770047 0
0 0.777401 0
0.0254673 0.784787 0
0.0523079 0.792172 0
0.079469 0.799832 0
0.106661 0.80737 0
