media_metadata/bennett_8/lut2.cube
TITLE "Generated by Resolve"
LUT_3D_SIZE 5
0 0 0
0.157504 0.000289921 0.000289921
0.333227 0 0
0.691875 0 0
0.920714 0 0
0 0.156741 0
0.155444 0.156161 0
0.331456 0.151324 0
0.691905 0.0978866 0
0.924147 0.0812695 0
0 0.321324 0
0.146532 0.324758 0
0.328862 0.326253 0
0.713466 0.296971 0
0.995407 0.330053 0
0 0.606531 0
0.0662089 0.659983 0
0.300923 0.713832 0
0.721111 0.720134 0
1 0.751659 0.000656138
0 0.984604 0
0.182498 1 0.0252842
0.382696 1 0.0446174
0.760922 1 0.00895705
1 1 0.00541695
0.000885023 0.000885023 0.14612
0.158419 0.0011902 0.146426
0.333944 0 0.141115
0.692546 0 0.0858167
0.921416 0 0.0658427
0 0.157427 0.144717
0.156283 0.157015 0.144305
0.332525 0.152407 0.139696
0.693523 0.0995041 0.0868086
0.926299 0.0834211 0.0707256
0 0.323079 0.132845
0.149142 0.327382 0.137163
0.333608 0.330999 0.14078
0.732174 0.315679 0.12546
1 0.349493 0.159274
0 0.625513 0.0197604
0.0870832 0.680873 0.0751049
0.322103 0.735012 0.129259
0.742184 0.741207 0.135454
1 0.76376 0.158007
0.00154116 1 0.146777
0.192782 1 0.180804
0.390478 1 0.19765
0.767208 1 0.160494
1 1 0.156817
0 0 0.338079
0.155688 0 0.338064
0.330938 0 0.332448
0.689677 0 0.277302
0.918624 0 0.257404
0 0.154452 0.336095
0.153674 0.154406 0.336049
0.330205 0.150072 0.331716
0.691844 0.0978256 0.279484
0.925338 0.0824598 0.264118
0 0.321569 0.325704
0.148547 0.326787 0.330907
0.340414 0.337804 0.341924
0.74786 0.331365 0.335485
1 0.366812 0.370932
0 0.640467 0.229053
0.104372 0.698146 0.286732
0.33994 0.75285 0.341451
0.756481 0.755505 0.344106
1 0.770657 0.359243
0.0130159 1 0.352605
0.198093 1 0.380453
0.39411 1 0.395636
0.770031 1 0.357656
1 1 0.353658
0 0 0.729351
0.137377 0 0.729259
0.31252 0 0.723552
0.671321 0 0.668467
0.900481 0 0.648753
0 0.136156 0.727306
0.135607 0.136324 0.727489
0.312612 0.132479 0.723644
0.674662 0.0806439 0.671809
0.909178 0.0663005 0.657465
0 0.304845 0.718486
0.133028 0.311269 0.72491
0.335012 0.332403 0.746044
0.747036 0.330526 0.744167
1 0.36878 0.782422
0 0.641093 0.6392
0.106233 0.700008 0.698116
0.342977 0.755901 0.754009
0.752773 0.751812 0.74992
1 0.760479 0.758572
0.00587472 1 0.754971
0.187243 1 0.779126
0.381842 1 0.792874
0.757137 1 0.754284
1 1 0.750286
0 0 0.975265
0.13022 0 0.974853
0.30544 0 0.969223
0.664179 0 0.914076
0.893736 0 0.894774
0 0.129229 0.973144
0.128878 0.12961 0.97351
0.306477 0.126345 0.97026
0.66923 0.0752117 0.919127
0.905104 0.0622263 0.906142
0 0.299733 0.966125
0.130373 0.308614 0.975021
0.346166 0.343542 1
0.758831 0.342321 1
1 0.38172 1
0 0.6542 0.905058
0.119646 0.71342 0.964279
0.355779 0.768704 1
0.757046 0.756085 1
1 0.761013 1
0.00799573 1 1
0.187259 1 1
0.380438 1 1
0.75555 1 1
1 1 1
